/PROG CODE4
/ATTR
OWNER		= NOC_FANU;
COMMENT		= "NOC_FANUC";
PROG_SIZE	= 328;
CREATE		= DATE 97-07-08  TIME 03:05:20;
MODIFIED	= DATE 17-07-08  TIME 03:05:26;
FILE_NAME	= ;
VERSION		= 0;
LINE_COUNT	= 10;
MEMORY_SIZE	= 692;
PROTECT		= READ_WRITE;
TCD:  STACK_SIZE	= 0,
      TASK_PRIORITY	= 0,
      TIME_SLICE	= 0,
      BUSY_LAMP_OFF	= 0,
      ABORT_REQUEST	= 0,
      PAUSE_REQUEST	= 0;
DEFAULT_GROUP	= 1,*,*,*,*;
CONTROL_CODE	= 00000000 00000000;
/APPL
/MN
1:UFRAME_NUM=1 ;
2:UTOOL_NUM=4;
3:J P[199] 10% CNT100;
4:L P[200] 250mm/sec FINE;
5:L P[201] 250mm/sec CNT100;
6:L P[202] 250mm/sec CNT100;
7:L P[203] 250mm/sec FINE;
8:L P[204] 250mm/sec CNT100;
9:L P[205] 250mm/sec CNT100;
10:L P[206] 250mm/sec FINE;
11:L P[207] 250mm/sec CNT100;
12:L P[208] 250mm/sec CNT100;
13:L P[209] 250mm/sec FINE;
14:L P[210] 250mm/sec CNT100;
15:L P[211] 250mm/sec CNT100;
16:L P[212] 250mm/sec FINE;
17:L P[213] 250mm/sec CNT100;
18:L P[214] 250mm/sec CNT100;
19:L P[215] 250mm/sec FINE;
20:L P[216] 250mm/sec CNT100;
21:L P[217] 250mm/sec CNT100;
22:L P[218] 250mm/sec FINE;
23:L P[219] 250mm/sec CNT100;
24:L P[220] 250mm/sec CNT100;
25:L P[221] 250mm/sec FINE;
26:L P[222] 250mm/sec CNT100;
27:L P[223] 250mm/sec CNT100;
28:L P[224] 250mm/sec FINE;
29:L P[225] 250mm/sec CNT100;
30:L P[226] 250mm/sec CNT100;
31:L P[227] 250mm/sec FINE;
32:L P[228] 250mm/sec CNT100;
33:L P[229] 250mm/sec CNT100;
34:L P[230] 250mm/sec FINE;
35:L P[231] 250mm/sec CNT100;
36:L P[232] 250mm/sec CNT100;
37:L P[233] 250mm/sec FINE;
38:L P[234] 250mm/sec CNT100;
39:L P[235] 250mm/sec CNT100;
40:L P[236] 250mm/sec FINE;
41:L P[237] 250mm/sec CNT100;
42:L P[238] 250mm/sec CNT100;
43:L P[239] 250mm/sec FINE;
44:L P[240] 250mm/sec CNT100;
45:L P[241] 250mm/sec CNT100;
46:L P[242] 250mm/sec FINE;
47:L P[243] 250mm/sec CNT100;
48:L P[244] 250mm/sec CNT100;
49:L P[245] 250mm/sec FINE;
50:L P[246] 250mm/sec CNT100;
51:L P[247] 250mm/sec CNT100;
52:L P[248] 250mm/sec FINE;
53:L P[249] 250mm/sec CNT100;
54:L P[250] 250mm/sec CNT100;
55:L P[251] 250mm/sec FINE;
56:L P[252] 250mm/sec CNT100;
57:L P[253] 250mm/sec CNT100;
58:L P[254] 250mm/sec FINE;
59:L P[255] 250mm/sec CNT100;
60:L P[256] 250mm/sec CNT100;
61:L P[257] 250mm/sec FINE;
62:L P[258] 250mm/sec CNT100;
63:L P[259] 250mm/sec CNT100;
64:L P[260] 250mm/sec FINE;
65:L P[261] 250mm/sec CNT100;
66:L P[262] 250mm/sec CNT100;
67:L P[263] 250mm/sec FINE;
68:L P[264] 250mm/sec CNT100;
69:L P[547] 250mm/sec CNT100;
70:L P[548] 250mm/sec FINE;
71:L P[549] 250mm/sec CNT100;
72:L P[709] 250mm/sec CNT100;
73:L P[710] 250mm/sec FINE;
74:L P[711] 250mm/sec CNT100;
75:L P[871] 250mm/sec CNT100;
76:L P[872] 250mm/sec FINE;
77:L P[873] 250mm/sec CNT100;
78:L P[1030] 250mm/sec CNT100;
79:L P[1031] 250mm/sec FINE;
80:L P[1032] 250mm/sec CNT100;
81:L P[1351] 250mm/sec CNT100;
82:L P[1352] 250mm/sec FINE;
83:L P[1353] 250mm/sec CNT100;
84:L P[1504] 250mm/sec CNT100;
85:L P[1505] 250mm/sec FINE;
86:L P[1506] 250mm/sec CNT100;
87:L P[1651] 250mm/sec CNT100;
88:L P[1652] 250mm/sec FINE;
89:L P[1653] 250mm/sec CNT100;
90:L P[1942] 250mm/sec CNT100;
91:L P[1943] 250mm/sec FINE;
92:L P[1944] 250mm/sec CNT100;
93:L P[2245] 250mm/sec CNT100;
94:L P[2246] 250mm/sec FINE;
95:L P[2247] 250mm/sec CNT100;
96:L P[2788] 250mm/sec CNT100;
97:L P[2789] 250mm/sec FINE;
98:L P[2790] 250mm/sec CNT100;
99:L P[2821] 250mm/sec CNT100;
100:L P[2822] 250mm/sec FINE;
101:L P[2823] 250mm/sec CNT100;
102:L P[2944] 250mm/sec CNT100;
103:L P[2945] 250mm/sec FINE;
104:L P[2946] 250mm/sec CNT100;
105:L P[2962] 250mm/sec CNT100;
106:L P[2963] 250mm/sec FINE;
107:L P[2964] 250mm/sec CNT100;
108:L P[2980] 250mm/sec CNT100;
109:L P[2981] 250mm/sec FINE;
110:L P[2982] 250mm/sec CNT100;
111:L P[2983] 250mm/sec CNT100;
112:L P[2984] 250mm/sec FINE;
113:L P[2985] 250mm/sec CNT100;
114:L P[3130] 250mm/sec CNT100;
115:L P[3131] 250mm/sec FINE;
116:L P[3132] 250mm/sec CNT100;
117:L P[3265] 250mm/sec CNT100;
118:L P[3266] 250mm/sec FINE;
119:L P[3267] 250mm/sec CNT100;
120:L P[3271] 250mm/sec CNT100;
121:L P[3272] 250mm/sec FINE;
122:L P[3273] 250mm/sec CNT100;
123:L P[3415] 250mm/sec CNT100;
124:L P[3416] 250mm/sec FINE;
125:L P[3417] 250mm/sec CNT100;
126:L P[3685] 250mm/sec CNT100;
127:L P[3686] 250mm/sec FINE;
128:L P[3687] 250mm/sec CNT100;
129:L P[3688] 250mm/sec CNT100;
130:L P[3689] 250mm/sec FINE;
131:L P[3690] 250mm/sec CNT100;
132:L P[3694] 250mm/sec CNT100;
133:L P[3695] 250mm/sec FINE;
134:L P[3696] 250mm/sec CNT100;
135:L P[4120] 250mm/sec CNT100;
136:L P[4121] 250mm/sec FINE;
137:L P[4122] 250mm/sec CNT100;
138:L P[4144] 250mm/sec CNT100;
139:L P[4145] 250mm/sec FINE;
140:L P[4146] 250mm/sec CNT100;
141:L P[4147] 250mm/sec CNT100;
142:L P[4148] 250mm/sec FINE;
143:L P[4149] 250mm/sec CNT100;
144:L P[4270] 250mm/sec CNT100;
145:L P[4271] 250mm/sec FINE;
146:L P[4272] 250mm/sec CNT100;
147:L P[4273] 250mm/sec CNT100;
148:L P[4274] 250mm/sec FINE;
149:L P[4275] 250mm/sec CNT100;
150:L P[4276] 250mm/sec CNT100;
151:L P[4277] 250mm/sec FINE;
152:L P[4278] 250mm/sec CNT100;
153:L P[4279] 250mm/sec CNT100;
154:L P[4280] 250mm/sec FINE;
155:L P[4281] 250mm/sec CNT100;
156:L P[4282] 250mm/sec CNT100;
157:L P[4283] 250mm/sec FINE;
158:L P[4284] 250mm/sec CNT100;
159:L P[4285] 250mm/sec CNT100;
160:L P[4286] 250mm/sec FINE;
161:L P[4287] 250mm/sec CNT100;
162:L P[4405] 250mm/sec CNT100;
163:L P[4406] 250mm/sec FINE;
164:L P[4407] 250mm/sec CNT100;
165:L P[4408] 250mm/sec CNT100;
166:L P[4409] 250mm/sec FINE;
167:L P[4410] 250mm/sec CNT100;
168:L P[4411] 250mm/sec CNT100;
169:L P[4412] 250mm/sec FINE;
170:L P[4413] 250mm/sec CNT100;
171:L P[4414] 250mm/sec CNT100;
172:L P[4415] 250mm/sec FINE;
173:L P[4416] 250mm/sec CNT100;
174:L P[4417] 250mm/sec CNT100;
175:L P[4418] 250mm/sec FINE;
176:L P[4419] 250mm/sec CNT100;
177:L P[4420] 250mm/sec CNT100;
178:L P[4421] 250mm/sec FINE;
179:L P[4422] 250mm/sec CNT100;
180:L P[4423] 250mm/sec CNT100;
181:L P[4424] 250mm/sec FINE;
182:L P[4425] 250mm/sec CNT100;
183:L P[4426] 250mm/sec CNT100;
184:L P[4427] 250mm/sec FINE;
185:L P[4428] 250mm/sec CNT100;
186:L P[4429] 250mm/sec CNT100;
187:L P[4430] 250mm/sec FINE;
188:L P[4431] 250mm/sec CNT100;
189:L P[4507] 250mm/sec CNT100;
190:L P[4508] 250mm/sec FINE;
191:L P[4509] 250mm/sec CNT100;
192:L P[4552] 250mm/sec CNT100;
193:L P[4553] 250mm/sec FINE;
194:L P[4554] 250mm/sec CNT100;
195:L P[4555] 250mm/sec CNT100;
196:L P[4556] 250mm/sec FINE;
197:L P[4557] 250mm/sec CNT100;
198:L P[4558] 250mm/sec CNT100;
199:L P[4559] 250mm/sec FINE;
200:L P[4560] 250mm/sec CNT100;
201:L P[4561] 250mm/sec CNT100;
202:L P[4562] 250mm/sec FINE;
203:L P[4563] 250mm/sec CNT100;
204:L P[4564] 250mm/sec CNT100;
205:L P[4565] 250mm/sec FINE;
206:L P[4566] 250mm/sec CNT100;
207:L P[4567] 250mm/sec CNT100;
208:L P[4568] 250mm/sec FINE;
209:L P[4569] 250mm/sec CNT100;
210:L P[4570] 250mm/sec CNT100;
211:L P[4571] 250mm/sec FINE;
212:L P[4572] 250mm/sec CNT100;
213:L P[4573] 250mm/sec CNT100;
214:L P[4574] 250mm/sec FINE;
215:L P[4575] 250mm/sec CNT100;
216:L P[4576] 250mm/sec CNT100;
217:L P[4577] 250mm/sec FINE;
218:L P[4578] 250mm/sec CNT100;
219:L P[4579] 250mm/sec CNT100;
220:L P[4580] 250mm/sec FINE;
221:L P[4581] 250mm/sec CNT100;
222:L P[4582] 250mm/sec CNT100;
223:L P[4583] 250mm/sec FINE;
224:L P[4584] 250mm/sec CNT100;
225:L P[4654] 250mm/sec CNT100;
226:L P[4655] 250mm/sec FINE;
227:L P[4656] 250mm/sec CNT100;
228:L P[4678] 250mm/sec CNT100;
229:L P[4679] 250mm/sec FINE;
230:L P[4680] 250mm/sec CNT100;
231:L P[4681] 250mm/sec CNT100;
232:L P[4682] 250mm/sec FINE;
233:L P[4683] 250mm/sec CNT100;
234:L P[4705] 250mm/sec CNT100;
235:L P[4706] 250mm/sec FINE;
236:L P[4707] 250mm/sec CNT100;
237:L P[4708] 250mm/sec CNT100;
238:L P[4709] 250mm/sec FINE;
239:L P[4710] 250mm/sec CNT100;
240:L P[4711] 250mm/sec CNT100;
241:L P[4712] 250mm/sec FINE;
242:L P[4713] 250mm/sec CNT100;
243:L P[4714] 250mm/sec CNT100;
244:L P[4715] 250mm/sec FINE;
245:L P[4716] 250mm/sec CNT100;
246:L P[4720] 250mm/sec CNT100;
247:L P[4721] 250mm/sec FINE;
248:L P[4722] 250mm/sec CNT100;
249:L P[4723] 250mm/sec CNT100;
250:L P[4724] 250mm/sec FINE;
251:L P[4725] 250mm/sec CNT100;
252:L P[4726] 250mm/sec CNT100;
253:L P[4727] 250mm/sec FINE;
254:L P[4728] 250mm/sec CNT100;
255:L P[4738] 250mm/sec CNT100;
256:L P[4739] 250mm/sec FINE;
257:L P[4740] 250mm/sec CNT100;
258:L P[4810] 250mm/sec CNT100;
259:L P[4811] 250mm/sec FINE;
260:L P[4812] 250mm/sec CNT100;
261:L P[4825] 250mm/sec CNT100;
262:L P[4826] 250mm/sec FINE;
263:L P[4827] 250mm/sec CNT100;
264:L P[4849] 250mm/sec CNT100;
265:L P[4850] 250mm/sec FINE;
266:L P[4851] 250mm/sec CNT100;
267:L P[4852] 250mm/sec CNT100;
268:L P[4853] 250mm/sec FINE;
269:L P[4854] 250mm/sec CNT100;
270:L P[4867] 250mm/sec CNT100;
271:L P[4868] 250mm/sec FINE;
272:L P[4869] 250mm/sec CNT100;
273:L P[4969] 250mm/sec CNT100;
274:L P[4970] 250mm/sec FINE;
275:L P[4971] 250mm/sec CNT100;
276:L P[4972] 250mm/sec CNT100;
277:L P[4973] 250mm/sec FINE;
278:L P[4974] 250mm/sec CNT100;
279:L P[4999] 250mm/sec CNT100;
280:L P[5000] 250mm/sec FINE;
281:L P[5001] 250mm/sec CNT100;
282:L P[5008] 250mm/sec CNT100;
283:L P[5009] 250mm/sec FINE;
284:L P[5010] 250mm/sec CNT100;
285:L P[5092] 250mm/sec CNT100;
286:L P[5093] 250mm/sec FINE;
287:L P[5094] 250mm/sec CNT100;
288:L P[5107] 250mm/sec CNT100;
289:L P[5108] 250mm/sec FINE;
290:L P[5109] 250mm/sec CNT100;
291:L P[5140] 250mm/sec CNT100;
292:L P[5141] 250mm/sec FINE;
293:L P[5142] 250mm/sec CNT100;
294:L P[5146] 250mm/sec CNT100;
295:L P[5147] 250mm/sec FINE;
296:L P[5148] 250mm/sec CNT100;
297:L P[5269] 250mm/sec CNT100;
298:L P[5270] 250mm/sec FINE;
299:L P[5271] 250mm/sec CNT100;
300:L P[5272] 250mm/sec CNT100;
301:L P[5273] 250mm/sec FINE;
302:L P[5274] 250mm/sec CNT100;
303:L P[5275] 250mm/sec CNT100;
304:L P[5276] 250mm/sec FINE;
305:L P[5277] 250mm/sec CNT100;
306:L P[5311] 250mm/sec CNT100;
307:L P[5312] 250mm/sec FINE;
308:L P[5313] 250mm/sec CNT100;
309:L P[5314] 250mm/sec CNT100;
310:L P[5315] 250mm/sec FINE;
311:L P[5316] 250mm/sec CNT100;
312:L P[5317] 250mm/sec CNT100;
313:L P[5318] 250mm/sec FINE;
314:L P[5319] 250mm/sec CNT100;
315:L P[5479] 250mm/sec CNT100;
316:L P[5480] 250mm/sec FINE;
317:L P[5481] 250mm/sec CNT100;
318:L P[5482] 250mm/sec CNT100;
319:L P[5483] 250mm/sec FINE;
320:L P[5484] 250mm/sec CNT100;
321:L P[5491] 250mm/sec CNT100;
322:L P[5492] 250mm/sec FINE;
323:L P[5493] 250mm/sec CNT100;
324:L P[5494] 250mm/sec CNT100;
325:L P[5495] 250mm/sec FINE;
326:L P[5496] 250mm/sec CNT100;
327:L P[5497] 250mm/sec CNT100;
328:L P[5498] 250mm/sec FINE;
329:L P[5499] 250mm/sec CNT100;
330:L P[5500] 250mm/sec CNT100;
331:L P[5501] 250mm/sec FINE;
332:L P[5502] 250mm/sec CNT100;
333:L P[5503] 250mm/sec CNT100;
334:L P[5504] 250mm/sec FINE;
335:L P[5505] 250mm/sec CNT100;
336:L P[5506] 250mm/sec CNT100;
337:L P[5507] 250mm/sec FINE;
338:L P[5508] 250mm/sec CNT100;
339:L P[5653] 250mm/sec CNT100;
340:L P[5654] 250mm/sec FINE;
341:L P[5655] 250mm/sec CNT100;
342:L P[5659] 250mm/sec CNT100;
343:L P[5660] 250mm/sec FINE;
344:L P[5661] 250mm/sec CNT100;
345:L P[5797] 250mm/sec CNT100;
346:L P[5798] 250mm/sec FINE;
347:L P[5799] 250mm/sec CNT100;
348:L P[5800] 250mm/sec CNT100;
349:L P[5801] 250mm/sec FINE;
350:L P[5802] 250mm/sec CNT100;
351:L P[5803] 250mm/sec CNT100;
352:L P[5804] 250mm/sec FINE;
353:L P[5805] 250mm/sec CNT100;
354:L P[5887] 250mm/sec CNT100;
355:L P[5888] 250mm/sec FINE;
356:L P[5889] 250mm/sec CNT100;
357:L P[5890] 250mm/sec CNT100;
358:L P[5891] 250mm/sec FINE;
359:L P[5892] 250mm/sec CNT100;
360:L P[5911] 250mm/sec CNT100;
361:L P[5912] 250mm/sec FINE;
362:L P[5913] 250mm/sec CNT100;
363:L P[5992] 250mm/sec CNT100;
364:L P[5993] 250mm/sec FINE;
365:L P[5994] 250mm/sec CNT100;
366:L P[5995] 250mm/sec CNT100;
367:L P[5996] 250mm/sec FINE;
368:L P[5997] 250mm/sec CNT100;
369:L P[5998] 250mm/sec CNT100;
370:L P[5999] 250mm/sec FINE;
371:L P[6000] 250mm/sec CNT100;
372:L P[6001] 250mm/sec CNT100;
373:L P[6002] 250mm/sec FINE;
374:L P[6003] 250mm/sec CNT100;
375:L P[6004] 250mm/sec CNT100;
376:L P[6005] 250mm/sec FINE;
377:L P[6006] 250mm/sec CNT100;
378:L P[6007] 250mm/sec CNT100;
379:L P[6008] 250mm/sec FINE;
380:L P[6009] 250mm/sec CNT100;
381:L P[6010] 250mm/sec CNT100;
382:L P[6011] 250mm/sec FINE;
383:L P[6012] 250mm/sec CNT100;
384:L P[6058] 250mm/sec CNT100;
385:L P[6059] 250mm/sec FINE;
386:L P[6060] 250mm/sec CNT100;
387:L P[6061] 250mm/sec CNT100;
388:L P[6062] 250mm/sec FINE;
389:L P[6063] 250mm/sec CNT100;
390:L P[6070] 250mm/sec CNT100;
391:L P[6071] 250mm/sec FINE;
392:L P[6072] 250mm/sec CNT100;
393:L P[6079] 250mm/sec CNT100;
394:L P[6080] 250mm/sec FINE;
395:L P[6081] 250mm/sec CNT100;
396:L P[6082] 250mm/sec CNT100;
397:L P[6083] 250mm/sec FINE;
398:L P[6084] 250mm/sec CNT100;
399:L P[6085] 250mm/sec CNT100;
400:L P[6086] 250mm/sec FINE;
401:L P[6087] 250mm/sec CNT100;
402:L P[6088] 250mm/sec CNT100;
403:L P[6089] 250mm/sec FINE;
404:L P[6090] 250mm/sec CNT100;
405:L P[6091] 250mm/sec CNT100;
406:L P[6092] 250mm/sec FINE;
407:L P[6093] 250mm/sec CNT100;
408:L P[6094] 250mm/sec CNT100;
409:L P[6095] 250mm/sec FINE;
410:L P[6096] 250mm/sec CNT100;
411:L P[6097] 250mm/sec CNT100;
412:L P[6098] 250mm/sec FINE;
413:L P[6099] 250mm/sec CNT100;
414:L P[6100] 250mm/sec CNT100;
415:L P[6101] 250mm/sec FINE;
416:L P[6102] 250mm/sec CNT100;
417:L P[6133] 250mm/sec CNT100;
418:L P[6134] 250mm/sec FINE;
419:L P[6135] 250mm/sec CNT100;
420:L P[6160] 250mm/sec CNT100;
421:L P[6161] 250mm/sec FINE;
422:L P[6162] 250mm/sec CNT100;
423:L P[6172] 250mm/sec CNT100;
424:L P[6173] 250mm/sec FINE;
425:L P[6174] 250mm/sec CNT100;
426:L P[6187] 250mm/sec CNT100;
427:L P[6188] 250mm/sec FINE;
428:L P[6189] 250mm/sec CNT100;
429:L P[6190] 250mm/sec CNT100;
430:L P[6191] 250mm/sec FINE;
431:L P[6192] 250mm/sec CNT100;
432:L P[6193] 250mm/sec CNT100;
433:L P[6194] 250mm/sec FINE;
434:L P[6195] 250mm/sec CNT100;
435:L P[6196] 250mm/sec CNT100;
436:L P[6197] 250mm/sec FINE;
437:L P[6198] 250mm/sec CNT100;
438:L P[6199] 250mm/sec CNT100;
439:L P[6200] 250mm/sec FINE;
440:L P[6201] 250mm/sec CNT100;
441:L P[6202] 250mm/sec CNT100;
442:L P[6203] 250mm/sec FINE;
443:L P[6204] 250mm/sec CNT100;
444:L P[6205] 250mm/sec CNT100;
445:L P[6206] 250mm/sec FINE;
446:L P[6207] 250mm/sec CNT100;
447:L P[6241] 250mm/sec CNT100;
448:L P[6242] 250mm/sec FINE;
449:L P[6243] 250mm/sec CNT100;
450:L P[6244] 250mm/sec CNT100;
451:L P[6245] 250mm/sec FINE;
452:L P[6246] 250mm/sec CNT100;
453:L P[6271] 250mm/sec CNT100;
454:L P[6272] 250mm/sec FINE;
455:L P[6273] 250mm/sec CNT100;
456:L P[6274] 250mm/sec CNT100;
457:L P[6275] 250mm/sec FINE;
458:L P[6276] 250mm/sec CNT100;
459:L P[6277] 250mm/sec CNT100;
460:L P[6278] 250mm/sec FINE;
461:L P[6279] 250mm/sec CNT100;
462:L P[6283] 250mm/sec CNT100;
463:L P[6284] 250mm/sec FINE;
464:L P[6285] 250mm/sec CNT100;
465:L P[6301] 250mm/sec CNT100;
466:L P[6302] 250mm/sec FINE;
467:L P[6303] 250mm/sec CNT100;
468:L P[6304] 250mm/sec CNT100;
469:L P[6305] 250mm/sec FINE;
470:L P[6306] 250mm/sec CNT100;
471:L P[6307] 250mm/sec CNT100;
472:L P[6308] 250mm/sec FINE;
473:L P[6309] 250mm/sec CNT100;
474:L P[6310] 250mm/sec CNT100;
475:L P[6311] 250mm/sec FINE;
476:L P[6312] 250mm/sec CNT100;
477:L P[6313] 250mm/sec CNT100;
478:L P[6314] 250mm/sec FINE;
479:L P[6315] 250mm/sec CNT100;
480:L P[6316] 250mm/sec CNT100;
481:L P[6317] 250mm/sec FINE;
482:L P[6318] 250mm/sec CNT100;
483:L P[6361] 250mm/sec CNT100;
484:L P[6362] 250mm/sec FINE;
485:L P[6363] 250mm/sec CNT100;
486:L P[6379] 250mm/sec CNT100;
487:L P[6380] 250mm/sec FINE;
488:L P[6381] 250mm/sec CNT100;
489:L P[6382] 250mm/sec CNT100;
490:L P[6383] 250mm/sec FINE;
491:L P[6384] 250mm/sec CNT100;
492:L P[6385] 250mm/sec CNT100;
493:L P[6386] 250mm/sec FINE;
494:L P[6387] 250mm/sec CNT100;
495:L P[6388] 250mm/sec CNT100;
496:L P[6389] 250mm/sec FINE;
497:L P[6390] 250mm/sec CNT100;
498:L P[6391] 250mm/sec CNT100;
499:L P[6392] 250mm/sec FINE;
500:L P[6393] 250mm/sec CNT100;
501:L P[6394] 250mm/sec CNT100;
502:L P[6395] 250mm/sec FINE;
503:L P[6396] 250mm/sec CNT100;
504:L P[6397] 250mm/sec CNT100;
505:L P[6398] 250mm/sec FINE;
506:L P[6399] 250mm/sec CNT100;
507:L P[6400] 250mm/sec CNT100;
508:L P[6401] 250mm/sec FINE;
509:L P[6402] 250mm/sec CNT100;
510:L P[6403] 250mm/sec CNT100;
511:L P[6404] 250mm/sec FINE;
512:L P[6405] 250mm/sec CNT100;
513:L P[6406] 250mm/sec CNT100;
514:L P[6407] 250mm/sec FINE;
515:L P[6408] 250mm/sec CNT100;
516:L P[6409] 250mm/sec CNT100;
517:L P[6410] 250mm/sec FINE;
518:L P[6411] 250mm/sec CNT100;
519:L P[6412] 250mm/sec CNT100;
520:L P[6413] 250mm/sec FINE;
521:L P[6414] 250mm/sec CNT100;
522:L P[6415] 250mm/sec CNT100;
523:L P[6416] 250mm/sec FINE;
524:L P[6417] 250mm/sec CNT100;
525:L P[6418] 250mm/sec CNT100;
526:L P[6419] 250mm/sec FINE;
527:L P[6420] 250mm/sec CNT100;
528:L P[6421] 250mm/sec CNT100;
529:L P[6422] 250mm/sec FINE;
530:L P[6423] 250mm/sec CNT100;
531:L P[6424] 250mm/sec CNT100;
532:L P[6425] 250mm/sec FINE;
533:L P[6426] 250mm/sec CNT100;
534:L P[6505] 250mm/sec CNT100;
535:L P[6506] 250mm/sec FINE;
536:L P[6507] 250mm/sec CNT100;
537:L P[6508] 250mm/sec CNT100;
538:L P[6509] 250mm/sec FINE;
539:L P[6510] 250mm/sec CNT100;
540:L P[6511] 250mm/sec CNT100;
541:L P[6512] 250mm/sec FINE;
542:L P[6513] 250mm/sec CNT100;
543:L P[6514] 250mm/sec CNT100;
544:L P[6515] 250mm/sec FINE;
545:L P[6516] 250mm/sec CNT100;
546:L P[6517] 250mm/sec CNT100;
547:L P[6518] 250mm/sec FINE;
548:L P[6519] 250mm/sec CNT100;
549:L P[6520] 250mm/sec CNT100;
550:L P[6521] 250mm/sec FINE;
551:L P[6522] 250mm/sec CNT100;
552:L P[6523] 250mm/sec CNT100;
553:L P[6524] 250mm/sec FINE;
554:L P[6525] 250mm/sec CNT100;
555:L P[6526] 250mm/sec CNT100;
556:L P[6527] 250mm/sec FINE;
557:L P[6528] 250mm/sec CNT100;
558:L P[6529] 250mm/sec CNT100;
559:L P[6530] 250mm/sec FINE;
560:L P[6531] 250mm/sec CNT100;
561:L P[6532] 250mm/sec CNT100;
562:L P[6533] 250mm/sec FINE;
563:L P[6534] 250mm/sec CNT100;
564:L P[6535] 250mm/sec CNT100;
565:L P[6536] 250mm/sec FINE;
566:L P[6537] 250mm/sec CNT100;
567:L P[6538] 250mm/sec CNT100;
568:L P[6539] 250mm/sec FINE;
569:L P[6540] 250mm/sec CNT100;
570:L P[6541] 250mm/sec CNT100;
571:L P[6542] 250mm/sec FINE;
572:L P[6543] 250mm/sec CNT100;
573:L P[6544] 250mm/sec CNT100;
574:L P[6545] 250mm/sec FINE;
575:L P[6546] 250mm/sec CNT100;
576:L P[6547] 250mm/sec CNT100;
577:L P[6548] 250mm/sec FINE;
578:L P[6549] 250mm/sec CNT100;
579:L P[6595] 250mm/sec CNT100;
580:L P[6596] 250mm/sec FINE;
581:L P[6597] 250mm/sec CNT100;
582:L P[6622] 250mm/sec CNT100;
583:L P[6623] 250mm/sec FINE;
584:L P[6624] 250mm/sec CNT100;
585:L P[6625] 250mm/sec CNT100;
586:L P[6626] 250mm/sec FINE;
587:L P[6627] 250mm/sec CNT100;
588:L P[6628] 250mm/sec CNT100;
589:L P[6629] 250mm/sec FINE;
590:L P[6630] 250mm/sec CNT100;
591:L P[6631] 250mm/sec CNT100;
592:L P[6632] 250mm/sec FINE;
593:L P[6633] 250mm/sec CNT100;
594:L P[6634] 250mm/sec CNT100;
595:L P[6635] 250mm/sec FINE;
596:L P[6636] 250mm/sec CNT100;
597:L P[6637] 250mm/sec CNT100;
598:L P[6638] 250mm/sec FINE;
599:L P[6639] 250mm/sec CNT100;
600:L P[6640] 250mm/sec CNT100;
601:L P[6641] 250mm/sec FINE;
602:L P[6642] 250mm/sec CNT100;
603:L P[6643] 250mm/sec CNT100;
604:L P[6644] 250mm/sec FINE;
605:L P[6645] 250mm/sec CNT100;
606:L P[6646] 250mm/sec CNT100;
607:L P[6647] 250mm/sec FINE;
608:L P[6648] 250mm/sec CNT100;
609:L P[6649] 250mm/sec CNT100;
610:L P[6650] 250mm/sec FINE;
611:L P[6651] 250mm/sec CNT100;
612:L P[6667] 250mm/sec CNT100;
613:L P[6668] 250mm/sec FINE;
614:L P[6669] 250mm/sec CNT100;
615:L P[6673] 250mm/sec CNT100;
616:L P[6674] 250mm/sec FINE;
617:L P[6675] 250mm/sec CNT100;
618:L P[6679] 250mm/sec CNT100;
619:L P[6680] 250mm/sec FINE;
620:L P[6681] 250mm/sec CNT100;
621:L P[6718] 250mm/sec CNT100;
622:L P[6719] 250mm/sec FINE;
623:L P[6720] 250mm/sec CNT100;
624:L P[6721] 250mm/sec CNT100;
625:L P[6722] 250mm/sec FINE;
626:L P[6723] 250mm/sec CNT100;
627:L P[6730] 250mm/sec CNT100;
628:L P[6731] 250mm/sec FINE;
629:L P[6732] 250mm/sec CNT100;
630:L P[6733] 250mm/sec CNT100;
631:L P[6734] 250mm/sec FINE;
632:L P[6735] 250mm/sec CNT100;
633:L P[6748] 250mm/sec CNT100;
634:L P[6749] 250mm/sec FINE;
635:L P[6750] 250mm/sec CNT100;
636:L P[6751] 250mm/sec CNT100;
637:L P[6752] 250mm/sec FINE;
638:L P[6753] 250mm/sec CNT100;
639:L P[6754] 250mm/sec CNT100;
640:L P[6755] 250mm/sec FINE;
641:L P[6756] 250mm/sec CNT100;
642:L P[6772] 250mm/sec CNT100;
643:L P[6773] 250mm/sec FINE;
644:L P[6774] 250mm/sec CNT100;
645:L P[6781] 250mm/sec CNT100;
646:L P[6782] 250mm/sec FINE;
647:L P[6783] 250mm/sec CNT100;
648:L P[6820] 250mm/sec CNT100;
649:L P[6821] 250mm/sec FINE;
650:L P[6822] 250mm/sec CNT100;
651:L P[6823] 250mm/sec CNT100;
652:L P[6824] 250mm/sec FINE;
653:L P[6825] 250mm/sec CNT100;
654:L P[6832] 250mm/sec CNT100;
655:L P[6833] 250mm/sec FINE;
656:L P[6834] 250mm/sec CNT100;
657:L P[6850] 250mm/sec CNT100;
658:L P[6851] 250mm/sec FINE;
659:L P[6852] 250mm/sec CNT100;
660:L P[6853] 250mm/sec CNT100;
661:L P[6854] 250mm/sec FINE;
662:L P[6855] 250mm/sec CNT100;
663:L P[6886] 250mm/sec CNT100;
664:L P[6887] 250mm/sec FINE;
665:L P[6888] 250mm/sec CNT100;
666:L P[6889] 250mm/sec CNT100;
667:L P[6890] 250mm/sec FINE;
668:L P[6891] 250mm/sec CNT100;
669:L P[6904] 250mm/sec CNT100;
670:L P[6905] 250mm/sec FINE;
671:L P[6906] 250mm/sec CNT100;
672:L P[6907] 250mm/sec CNT100;
673:L P[6908] 250mm/sec FINE;
674:L P[6909] 250mm/sec CNT100;
675:L P[6910] 250mm/sec CNT100;
676:L P[6911] 250mm/sec FINE;
677:L P[6912] 250mm/sec CNT100;
678:L P[6922] 250mm/sec CNT100;
679:L P[6923] 250mm/sec FINE;
680:L P[6924] 250mm/sec CNT100;
681:L P[6925] 250mm/sec CNT100;
682:L P[6926] 250mm/sec FINE;
683:L P[6927] 250mm/sec CNT100;
684:L P[6928] 250mm/sec CNT100;
685:L P[6929] 250mm/sec FINE;
686:L P[6930] 250mm/sec CNT100;
687:L P[6934] 250mm/sec CNT100;
688:L P[6935] 250mm/sec FINE;
689:L P[6936] 250mm/sec CNT100;
690:L P[6973] 250mm/sec CNT100;
691:L P[6974] 250mm/sec FINE;
692:L P[6975] 250mm/sec CNT100;
693:L P[6976] 250mm/sec CNT100;
694:L P[6977] 250mm/sec FINE;
695:L P[6978] 250mm/sec CNT100;
696:L P[7003] 250mm/sec CNT100;
697:L P[7004] 250mm/sec FINE;
698:L P[7005] 250mm/sec CNT100;
699:L P[7006] 250mm/sec CNT100;
700:L P[7007] 250mm/sec FINE;
701:L P[7008] 250mm/sec CNT100;
702:L P[7015] 250mm/sec CNT100;
703:L P[7016] 250mm/sec FINE;
704:L P[7017] 250mm/sec CNT100;
705:L P[7018] 250mm/sec CNT100;
706:L P[7019] 250mm/sec FINE;
707:L P[7020] 250mm/sec CNT100;
708:L P[7021] 250mm/sec CNT100;
709:L P[7022] 250mm/sec FINE;
710:L P[7023] 250mm/sec CNT100;
711:L P[7024] 250mm/sec CNT100;
712:L P[7025] 250mm/sec FINE;
713:L P[7026] 250mm/sec CNT100;
714:L P[7033] 250mm/sec CNT100;
715:L P[7034] 250mm/sec FINE;
716:L P[7035] 250mm/sec CNT100;
717:L P[7036] 250mm/sec CNT100;
718:L P[7037] 250mm/sec FINE;
719:L P[7038] 250mm/sec CNT100;
720:L P[7039] 250mm/sec CNT100;
721:L P[7040] 250mm/sec FINE;
722:L P[7041] 250mm/sec CNT100;
723:L P[7042] 250mm/sec CNT100;
724:L P[7043] 250mm/sec FINE;
725:L P[7044] 250mm/sec CNT100;
726:L P[7045] 250mm/sec CNT100;
727:L P[7046] 250mm/sec FINE;
728:L P[7047] 250mm/sec CNT100;
729:L P[7051] 250mm/sec CNT100;
730:L P[7052] 250mm/sec FINE;
731:L P[7053] 250mm/sec CNT100;
732:L P[7069] 250mm/sec CNT100;
733:L P[7070] 250mm/sec FINE;
734:L P[7071] 250mm/sec CNT100;
735:L P[7072] 250mm/sec CNT100;
736:L P[7073] 250mm/sec FINE;
737:L P[7074] 250mm/sec CNT100;
738:L P[7075] 250mm/sec CNT100;
739:L P[7076] 250mm/sec FINE;
740:L P[7077] 250mm/sec CNT100;
741:L P[7078] 250mm/sec CNT100;
742:L P[7079] 250mm/sec FINE;
743:L P[7080] 250mm/sec CNT100;
744:L P[7081] 250mm/sec CNT100;
745:L P[7082] 250mm/sec FINE;
746:L P[7083] 250mm/sec CNT100;
747:L P[7084] 250mm/sec CNT100;
748:L P[7085] 250mm/sec FINE;
749:L P[7086] 250mm/sec CNT100;
750:L P[7087] 250mm/sec CNT100;
751:L P[7088] 250mm/sec FINE;
752:L P[7089] 250mm/sec CNT100;
753:L P[7090] 250mm/sec CNT100;
754:L P[7091] 250mm/sec FINE;
755:L P[7092] 250mm/sec CNT100;
756:L P[7093] 250mm/sec CNT100;
757:L P[7094] 250mm/sec FINE;
758:L P[7095] 250mm/sec CNT100;
759:L P[7102] 250mm/sec CNT100;
760:L P[7103] 250mm/sec FINE;
761:L P[7104] 250mm/sec CNT100;
762:L P[7117] 250mm/sec CNT100;
763:L P[7118] 250mm/sec FINE;
764:L P[7119] 250mm/sec CNT100;
765:L P[7120] 250mm/sec CNT100;
766:L P[7121] 250mm/sec FINE;
767:L P[7122] 250mm/sec CNT100;
768:L P[7123] 250mm/sec CNT100;
769:L P[7124] 250mm/sec FINE;
770:L P[7125] 250mm/sec CNT100;
771:L P[7129] 250mm/sec CNT100;
772:L P[7130] 250mm/sec FINE;
773:L P[7131] 250mm/sec CNT100;
774:L P[7132] 250mm/sec CNT100;
775:L P[7133] 250mm/sec FINE;
776:L P[7134] 250mm/sec CNT100;
777:L P[7135] 250mm/sec CNT100;
778:L P[7136] 250mm/sec FINE;
779:L P[7137] 250mm/sec CNT100;
780:L P[7138] 250mm/sec CNT100;
781:L P[7139] 250mm/sec FINE;
782:L P[7140] 250mm/sec CNT100;
783:L P[7141] 250mm/sec CNT100;
784:L P[7142] 250mm/sec FINE;
785:L P[7143] 250mm/sec CNT100;
786:L P[7144] 250mm/sec CNT100;
787:L P[7145] 250mm/sec FINE;
788:L P[7146] 250mm/sec CNT100;
789:L P[7147] 250mm/sec CNT100;
790:L P[7148] 250mm/sec FINE;
791:L P[7149] 250mm/sec CNT100;
792:L P[7159] 250mm/sec CNT100;
793:L P[7160] 250mm/sec FINE;
794:L P[7161] 250mm/sec CNT100;
795:L P[7162] 250mm/sec CNT100;
796:L P[7163] 250mm/sec FINE;
797:L P[7164] 250mm/sec CNT100;
798:L P[7165] 250mm/sec CNT100;
799:L P[7166] 250mm/sec FINE;
800:L P[7167] 250mm/sec CNT100;
801:L P[7168] 250mm/sec CNT100;
802:L P[7169] 250mm/sec FINE;
803:L P[7170] 250mm/sec CNT100;
804:L P[7171] 250mm/sec CNT100;
805:L P[7172] 250mm/sec FINE;
806:L P[7173] 250mm/sec CNT100;
807:L P[7174] 250mm/sec CNT100;
808:L P[7175] 250mm/sec FINE;
809:L P[7176] 250mm/sec CNT100;
810:L P[7177] 250mm/sec CNT100;
811:L P[7178] 250mm/sec FINE;
812:L P[7179] 250mm/sec CNT100;
813:L P[7180] 250mm/sec CNT100;
814:L P[7181] 250mm/sec FINE;
815:L P[7182] 250mm/sec CNT100;
816:L P[7183] 250mm/sec CNT100;
817:L P[7184] 250mm/sec FINE;
818:L P[7185] 250mm/sec CNT100;
819:L P[7186] 250mm/sec CNT100;
820:L P[7187] 250mm/sec FINE;
821:L P[7188] 250mm/sec CNT100;
822:L P[7189] 250mm/sec CNT100;
823:L P[7190] 250mm/sec FINE;
824:L P[7191] 250mm/sec CNT100;
825:L P[7192] 250mm/sec CNT100;
826:L P[7193] 250mm/sec FINE;
827:L P[7194] 250mm/sec CNT100;
828:L P[7195] 250mm/sec CNT100;
829:L P[7196] 250mm/sec FINE;
830:L P[7197] 250mm/sec CNT100;
831:L P[7198] 250mm/sec CNT100;
832:L P[7199] 250mm/sec FINE;
833:L P[7200] 250mm/sec CNT100;
834:L P[7222] 250mm/sec CNT100;
835:L P[7223] 250mm/sec FINE;
836:L P[7224] 250mm/sec CNT100;
837:L P[7225] 250mm/sec CNT100;
838:L P[7226] 250mm/sec FINE;
839:L P[7227] 250mm/sec CNT100;
840:L P[7240] 250mm/sec CNT100;
841:L P[7241] 250mm/sec FINE;
842:L P[7242] 250mm/sec CNT100;
843:L P[7243] 250mm/sec CNT100;
844:L P[7244] 250mm/sec FINE;
845:L P[7245] 250mm/sec CNT100;
846:L P[7246] 250mm/sec CNT100;
847:L P[7247] 250mm/sec FINE;
848:L P[7248] 250mm/sec CNT100;
849:L P[7249] 250mm/sec CNT100;
850:L P[7250] 250mm/sec FINE;
851:L P[7251] 250mm/sec CNT100;
852:L P[7264] 250mm/sec CNT100;
853:L P[7265] 250mm/sec FINE;
854:L P[7266] 250mm/sec CNT100;
855:L P[7267] 250mm/sec CNT100;
856:L P[7268] 250mm/sec FINE;
857:L P[7269] 250mm/sec CNT100;
858:L P[7270] 250mm/sec CNT100;
859:L P[7271] 250mm/sec FINE;
860:L P[7272] 250mm/sec CNT100;
861:L P[7273] 250mm/sec CNT100;
862:L P[7274] 250mm/sec FINE;
863:L P[7275] 250mm/sec CNT100;
864:L P[7276] 250mm/sec CNT100;
865:L P[7277] 250mm/sec FINE;
866:L P[7278] 250mm/sec CNT100;
867:L P[7279] 250mm/sec CNT100;
868:L P[7280] 250mm/sec FINE;
869:L P[7281] 250mm/sec CNT100;
870:L P[7282] 250mm/sec CNT100;
871:L P[7283] 250mm/sec FINE;
872:L P[7284] 250mm/sec CNT100;
873:L P[7285] 250mm/sec CNT100;
874:L P[7286] 250mm/sec FINE;
875:L P[7287] 250mm/sec CNT100;
876:L P[7288] 250mm/sec CNT100;
877:L P[7289] 250mm/sec FINE;
878:L P[7290] 250mm/sec CNT100;
879:L P[7291] 250mm/sec CNT100;
880:L P[7292] 250mm/sec FINE;
881:L P[7293] 250mm/sec CNT100;
882:L P[7294] 250mm/sec CNT100;
883:L P[7295] 250mm/sec FINE;
884:L P[7296] 250mm/sec CNT100;
885:L P[7297] 250mm/sec CNT100;
886:L P[7298] 250mm/sec FINE;
887:L P[7299] 250mm/sec CNT100;
888:L P[7300] 250mm/sec CNT100;
889:L P[7301] 250mm/sec FINE;
890:L P[7302] 250mm/sec CNT100;
891:L P[7303] 250mm/sec CNT100;
892:L P[7304] 250mm/sec FINE;
893:L P[7305] 250mm/sec CNT100;
894:L P[7330] 250mm/sec CNT100;
895:L P[7331] 250mm/sec FINE;
896:L P[7332] 250mm/sec CNT100;
897:L P[7348] 250mm/sec CNT100;
898:L P[7349] 250mm/sec FINE;
899:L P[7350] 250mm/sec CNT100;
900:L P[7351] 250mm/sec CNT100;
901:L P[7352] 250mm/sec FINE;
902:L P[7353] 250mm/sec CNT100;
903:L P[7354] 250mm/sec CNT100;
904:L P[7355] 250mm/sec FINE;
905:L P[7356] 250mm/sec CNT100;
906:L P[7369] 250mm/sec CNT100;
907:L P[7370] 250mm/sec FINE;
908:L P[7371] 250mm/sec CNT100;
909:L P[7372] 250mm/sec CNT100;
910:L P[7373] 250mm/sec FINE;
911:L P[7374] 250mm/sec CNT100;
912:L P[7375] 250mm/sec CNT100;
913:L P[7376] 250mm/sec FINE;
914:L P[7377] 250mm/sec CNT100;
915:L P[7378] 250mm/sec CNT100;
916:L P[7379] 250mm/sec FINE;
917:L P[7380] 250mm/sec CNT100;
918:L P[7381] 250mm/sec CNT100;
919:L P[7382] 250mm/sec FINE;
920:L P[7383] 250mm/sec CNT100;
921:L P[7384] 250mm/sec CNT100;
922:L P[7385] 250mm/sec FINE;
923:L P[7386] 250mm/sec CNT100;
924:L P[7387] 250mm/sec CNT100;
925:L P[7388] 250mm/sec FINE;
926:L P[7389] 250mm/sec CNT100;
927:L P[7390] 250mm/sec CNT100;
928:L P[7391] 250mm/sec FINE;
929:L P[7392] 250mm/sec CNT100;
930:L P[7393] 250mm/sec CNT100;
931:L P[7394] 250mm/sec FINE;
932:L P[7395] 250mm/sec CNT100;
933:L P[7396] 250mm/sec CNT100;
934:L P[7397] 250mm/sec FINE;
935:L P[7398] 250mm/sec CNT100;
936:L P[7399] 250mm/sec CNT100;
937:L P[7400] 250mm/sec FINE;
938:L P[7401] 250mm/sec CNT100;
939:L P[7402] 250mm/sec CNT100;
940:L P[7403] 250mm/sec FINE;
941:L P[7404] 250mm/sec CNT100;
942:L P[7405] 250mm/sec CNT100;
943:L P[7406] 250mm/sec FINE;
944:L P[7407] 250mm/sec CNT100;
945:L P[7453] 250mm/sec CNT100;
946:L P[7454] 250mm/sec FINE;
947:L P[7455] 250mm/sec CNT100;
948:L P[7456] 250mm/sec CNT100;
949:L P[7457] 250mm/sec FINE;
950:L P[7458] 250mm/sec CNT100;
951:L P[7459] 250mm/sec CNT100;
952:L P[7460] 250mm/sec FINE;
953:L P[7461] 250mm/sec CNT100;
954:L P[7462] 250mm/sec CNT100;
955:L P[7463] 250mm/sec FINE;
956:L P[7464] 250mm/sec CNT100;
957:L P[7474] 250mm/sec CNT100;
958:L P[7475] 250mm/sec FINE;
959:L P[7476] 250mm/sec CNT100;
960:L P[7477] 250mm/sec CNT100;
961:L P[7478] 250mm/sec FINE;
962:L P[7479] 250mm/sec CNT100;
963:L P[7480] 250mm/sec CNT100;
964:L P[7481] 250mm/sec FINE;
965:L P[7482] 250mm/sec CNT100;
966:L P[7483] 250mm/sec CNT100;
967:L P[7484] 250mm/sec FINE;
968:L P[7485] 250mm/sec CNT100;
969:L P[7486] 250mm/sec CNT100;
970:L P[7487] 250mm/sec FINE;
971:L P[7488] 250mm/sec CNT100;
972:L P[7489] 250mm/sec CNT100;
973:L P[7490] 250mm/sec FINE;
974:L P[7491] 250mm/sec CNT100;
975:L P[7492] 250mm/sec CNT100;
976:L P[7493] 250mm/sec FINE;
977:L P[7494] 250mm/sec CNT100;
978:L P[7495] 250mm/sec CNT100;
979:L P[7496] 250mm/sec FINE;
980:L P[7497] 250mm/sec CNT100;
981:L P[7498] 250mm/sec CNT100;
982:L P[7499] 250mm/sec FINE;
983:L P[7500] 250mm/sec CNT100;
984:L P[7501] 250mm/sec CNT100;
985:L P[7502] 250mm/sec FINE;
986:L P[7503] 250mm/sec CNT100;
987:L P[7504] 250mm/sec CNT100;
988:L P[7505] 250mm/sec FINE;
989:L P[7506] 250mm/sec CNT100;
990:L P[7507] 250mm/sec CNT100;
991:L P[7508] 250mm/sec FINE;
992:L P[7509] 250mm/sec CNT100;
993:L P[7516] 250mm/sec CNT100;
994:L P[7517] 250mm/sec FINE;
995:L P[7518] 250mm/sec CNT100;
996:L P[7549] 250mm/sec CNT100;
997:L P[7550] 250mm/sec FINE;
998:L P[7551] 250mm/sec CNT100;
999:L P[7552] 250mm/sec CNT100;
1000:L P[7553] 250mm/sec FINE;
1001:L P[7554] 250mm/sec CNT100;
1002:L P[7555] 250mm/sec CNT100;
1003:L P[7556] 250mm/sec FINE;
1004:L P[7557] 250mm/sec CNT100;
1005:L P[7558] 250mm/sec CNT100;
1006:L P[7559] 250mm/sec FINE;
1007:L P[7560] 250mm/sec CNT100;
1008:L P[7561] 250mm/sec CNT100;
1009:L P[7562] 250mm/sec FINE;
1010:L P[7563] 250mm/sec CNT100;
1011:L P[7615] 250mm/sec CNT100;
1012:L P[7616] 250mm/sec FINE;
1013:L P[7617] 250mm/sec CNT100;
1014:L P[7618] 250mm/sec CNT100;
1015:L P[7619] 250mm/sec FINE;
1016:L P[7620] 250mm/sec CNT100;
1017:L P[7651] 250mm/sec CNT100;
1018:L P[7652] 250mm/sec FINE;
1019:L P[7653] 250mm/sec CNT100;
1020:L P[7654] 250mm/sec CNT100;
1021:L P[7655] 250mm/sec FINE;
1022:L P[7656] 250mm/sec CNT100;
1023:L P[7663] 250mm/sec CNT100;
1024:L P[7664] 250mm/sec FINE;
1025:L P[7665] 250mm/sec CNT100;
1026:L P[7708] 250mm/sec CNT100;
1027:L P[7709] 250mm/sec FINE;
1028:L P[7710] 250mm/sec CNT100;
1029:L P[7711] 250mm/sec CNT100;
1030:L P[7712] 250mm/sec FINE;
1031:L P[7713] 250mm/sec CNT100;
1032:L P[7720] 250mm/sec CNT100;
1033:L P[7721] 250mm/sec FINE;
1034:L P[7722] 250mm/sec CNT100;
1035:L P[7723] 250mm/sec CNT100;
1036:L P[7724] 250mm/sec FINE;
1037:L P[7725] 250mm/sec CNT100;
1038:L P[7726] 250mm/sec CNT100;
1039:L P[7727] 250mm/sec FINE;
1040:L P[7728] 250mm/sec CNT100;
1041:L P[7729] 250mm/sec CNT100;
1042:L P[7730] 250mm/sec FINE;
1043:L P[7731] 250mm/sec CNT100;
1044:L P[7732] 250mm/sec CNT100;
1045:L P[7733] 250mm/sec FINE;
1046:L P[7734] 250mm/sec CNT100;
1047:L P[7735] 250mm/sec CNT100;
1048:L P[7736] 250mm/sec FINE;
1049:L P[7737] 250mm/sec CNT100;
1050:L P[7738] 250mm/sec CNT100;
1051:L P[7739] 250mm/sec FINE;
1052:L P[7740] 250mm/sec CNT100;
1053:L P[7741] 250mm/sec CNT100;
1054:L P[7742] 250mm/sec FINE;
1055:L P[7743] 250mm/sec CNT100;
1056:L P[7744] 250mm/sec CNT100;
1057:L P[7745] 250mm/sec FINE;
1058:L P[7746] 250mm/sec CNT100;
1059:L P[7747] 250mm/sec CNT100;
1060:L P[7748] 250mm/sec FINE;
1061:L P[7749] 250mm/sec CNT100;
1062:L P[7780] 250mm/sec CNT100;
1063:L P[7781] 250mm/sec FINE;
1064:L P[7782] 250mm/sec CNT100;
1065:L P[7795] 250mm/sec CNT100;
1066:L P[7796] 250mm/sec FINE;
1067:L P[7797] 250mm/sec CNT100;
1068:L P[7798] 250mm/sec CNT100;
1069:L P[7799] 250mm/sec FINE;
1070:L P[7800] 250mm/sec CNT100;
1071:L P[7813] 250mm/sec CNT100;
1072:L P[7814] 250mm/sec FINE;
1073:L P[7815] 250mm/sec CNT100;
1074:L P[7816] 250mm/sec CNT100;
1075:L P[7817] 250mm/sec FINE;
1076:L P[7818] 250mm/sec CNT100;
1077:L P[7819] 250mm/sec CNT100;
1078:L P[7820] 250mm/sec FINE;
1079:L P[7821] 250mm/sec CNT100;
1080:L P[7822] 250mm/sec CNT100;
1081:L P[7823] 250mm/sec FINE;
1082:L P[7824] 250mm/sec CNT100;
1083:L P[7825] 250mm/sec CNT100;
1084:L P[7826] 250mm/sec FINE;
1085:L P[7827] 250mm/sec CNT100;
1086:L P[7828] 250mm/sec CNT100;
1087:L P[7829] 250mm/sec FINE;
1088:L P[7830] 250mm/sec CNT100;
1089:L P[7831] 250mm/sec CNT100;
1090:L P[7832] 250mm/sec FINE;
1091:L P[7833] 250mm/sec CNT100;
1092:L P[7834] 250mm/sec CNT100;
1093:L P[7835] 250mm/sec FINE;
1094:L P[7836] 250mm/sec CNT100;
1095:L P[7846] 250mm/sec CNT100;
1096:L P[7847] 250mm/sec FINE;
1097:L P[7848] 250mm/sec CNT100;
1098:L P[7861] 250mm/sec CNT100;
1099:L P[7862] 250mm/sec FINE;
1100:L P[7863] 250mm/sec CNT100;
1101:L P[7867] 250mm/sec CNT100;
1102:L P[7868] 250mm/sec FINE;
1103:L P[7869] 250mm/sec CNT100;
1104:L P[7876] 250mm/sec CNT100;
1105:L P[7877] 250mm/sec FINE;
1106:L P[7878] 250mm/sec CNT100;
1107:L P[7879] 250mm/sec CNT100;
1108:L P[7880] 250mm/sec FINE;
1109:L P[7881] 250mm/sec CNT100;
1110:L P[7885] 250mm/sec CNT100;
1111:L P[7886] 250mm/sec FINE;
1112:L P[7887] 250mm/sec CNT100;
1113:L P[7894] 250mm/sec CNT100;
1114:L P[7895] 250mm/sec FINE;
1115:L P[7896] 250mm/sec CNT100;
1116:L P[7897] 250mm/sec CNT100;
1117:L P[7898] 250mm/sec FINE;
1118:L P[7899] 250mm/sec CNT100;
1119:L P[7903] 250mm/sec CNT100;
1120:L P[7904] 250mm/sec FINE;
1121:L P[7905] 250mm/sec CNT100;
1122:L P[7906] 250mm/sec CNT100;
1123:L P[7907] 250mm/sec FINE;
1124:L P[7908] 250mm/sec CNT100;
1125:L P[7909] 250mm/sec CNT100;
1126:L P[7910] 250mm/sec FINE;
1127:L P[7911] 250mm/sec CNT100;
1128:L P[7912] 250mm/sec CNT100;
1129:L P[7913] 250mm/sec FINE;
1130:L P[7914] 250mm/sec CNT100;
1131:L P[7915] 250mm/sec CNT100;
1132:L P[7916] 250mm/sec FINE;
1133:L P[7917] 250mm/sec CNT100;
1134:L P[7921] 250mm/sec CNT100;
1135:L P[7922] 250mm/sec FINE;
1136:L P[7923] 250mm/sec CNT100;
1137:L P[7924] 250mm/sec CNT100;
1138:L P[7925] 250mm/sec FINE;
1139:L P[7926] 250mm/sec CNT100;
1140:L P[7933] 250mm/sec CNT100;
1141:L P[7934] 250mm/sec FINE;
1142:L P[7935] 250mm/sec CNT100;
1143:L P[7966] 250mm/sec CNT100;
1144:L P[7967] 250mm/sec FINE;
1145:L P[7968] 250mm/sec CNT100;
1146:L P[7969] 250mm/sec CNT100;
1147:L P[7970] 250mm/sec FINE;
1148:L P[7971] 250mm/sec CNT100;
1149:L P[7972] 250mm/sec CNT100;
1150:L P[7973] 250mm/sec FINE;
1151:L P[7974] 250mm/sec CNT100;
1152:L P[7975] 250mm/sec CNT100;
1153:L P[7976] 250mm/sec FINE;
1154:L P[7977] 250mm/sec CNT100;
1155:L P[7978] 250mm/sec CNT100;
1156:L P[7979] 250mm/sec FINE;
1157:L P[7980] 250mm/sec CNT100;
1158:L P[7981] 250mm/sec CNT100;
1159:L P[7982] 250mm/sec FINE;
1160:L P[7983] 250mm/sec CNT100;
1161:L P[7984] 250mm/sec CNT100;
1162:L P[7985] 250mm/sec FINE;
1163:L P[7986] 250mm/sec CNT100;
1164:L P[7993] 250mm/sec CNT100;
1165:L P[7994] 250mm/sec FINE;
1166:L P[7995] 250mm/sec CNT100;
1167:L P[8008] 250mm/sec CNT100;
1168:L P[8009] 250mm/sec FINE;
1169:L P[8010] 250mm/sec CNT100;
1170:L P[8035] 250mm/sec CNT100;
1171:L P[8036] 250mm/sec FINE;
1172:L P[8037] 250mm/sec CNT100;
1173:L P[8038] 250mm/sec CNT100;
1174:L P[8039] 250mm/sec FINE;
1175:L P[8040] 250mm/sec CNT100;
1176:L P[8041] 250mm/sec CNT100;
1177:L P[8042] 250mm/sec FINE;
1178:L P[8043] 250mm/sec CNT100;
1179:L P[8044] 250mm/sec CNT100;
1180:L P[8045] 250mm/sec FINE;
1181:L P[8046] 250mm/sec CNT100;
1182:L P[8068] 250mm/sec CNT100;
1183:L P[8069] 250mm/sec FINE;
1184:L P[8070] 250mm/sec CNT100;
1185:L P[8071] 250mm/sec CNT100;
1186:L P[8072] 250mm/sec FINE;
1187:L P[8073] 250mm/sec CNT100;
1188:L P[8116] 250mm/sec CNT100;
1189:L P[8117] 250mm/sec FINE;
1190:L P[8118] 250mm/sec CNT100;
1191:L P[8149] 250mm/sec CNT100;
1192:L P[8150] 250mm/sec FINE;
1193:L P[8151] 250mm/sec CNT100;
1194:L P[8158] 250mm/sec CNT100;
1195:L P[8159] 250mm/sec FINE;
1196:L P[8160] 250mm/sec CNT100;
1197:L P[8164] 250mm/sec CNT100;
1198:L P[8165] 250mm/sec FINE;
1199:L P[8166] 250mm/sec CNT100;
1200:L P[8170] 250mm/sec CNT100;
1201:L P[8171] 250mm/sec FINE;
1202:L P[8172] 250mm/sec CNT100;
1203:L P[8191] 250mm/sec CNT100;
1204:L P[8192] 250mm/sec FINE;
1205:L P[8193] 250mm/sec CNT100;
1206:L P[8260] 250mm/sec CNT100;
1207:L P[8261] 250mm/sec FINE;
1208:L P[8262] 250mm/sec CNT100;
1209:L P[8263] 250mm/sec CNT100;
1210:L P[8264] 250mm/sec FINE;
1211:L P[8265] 250mm/sec CNT100;
1212:L P[8266] 250mm/sec CNT100;
1213:L P[8267] 250mm/sec FINE;
1214:L P[8268] 250mm/sec CNT100;
1215:L P[8293] 250mm/sec CNT100;
1216:L P[8294] 250mm/sec FINE;
1217:L P[8295] 250mm/sec CNT100;
1218:L P[8449] 250mm/sec CNT100;
1219:L P[8450] 250mm/sec FINE;
1220:L P[8451] 250mm/sec CNT100;
1221:J P[11569] 50% CNT100;
/POS
P[199]{
   GP1:
	UF : 1, UT : 4,		CONFIG : 'N U T, 0, 0, 0',
	X =  207.000  mm,	Y =  -6.000  mm,	Z =   15.000 mm,
	W =-180.000 deg,	P =   0.000 deg,	R =    90.000 deg
};
P[200]{
   GP1:
	UF : 1, UT : 4,		CONFIG : 'N U T, 0, 0, 0',
	X =  207.000  mm,	Y =  -6.000  mm,	Z =   -2.000 mm,
	W =-180.000 deg,	P =   0.000 deg,	R =    90.000 deg
};
P[201]{
   GP1:
	UF : 1, UT : 4,		CONFIG : 'N U T, 0, 0, 0',
	X =  207.000  mm,	Y =  -6.000  mm,	Z =   15.000 mm,
	W =-180.000 deg,	P =   0.000 deg,	R =    90.000 deg
};
P[202]{
   GP1:
	UF : 1, UT : 4,		CONFIG : 'N U T, 0, 0, 0',
	X =  210.000  mm,	Y =  -6.000  mm,	Z =   15.000 mm,
	W =-180.000 deg,	P =   0.000 deg,	R =    90.000 deg
};
P[203]{
   GP1:
	UF : 1, UT : 4,		CONFIG : 'N U T, 0, 0, 0',
	X =  210.000  mm,	Y =  -6.000  mm,	Z =   -2.000 mm,
	W =-180.000 deg,	P =   0.000 deg,	R =    90.000 deg
};
P[204]{
   GP1:
	UF : 1, UT : 4,		CONFIG : 'N U T, 0, 0, 0',
	X =  210.000  mm,	Y =  -6.000  mm,	Z =   15.000 mm,
	W =-180.000 deg,	P =   0.000 deg,	R =    90.000 deg
};
P[205]{
   GP1:
	UF : 1, UT : 4,		CONFIG : 'N U T, 0, 0, 0',
	X =  213.000  mm,	Y =  -6.000  mm,	Z =   15.000 mm,
	W =-180.000 deg,	P =   0.000 deg,	R =    90.000 deg
};
P[206]{
   GP1:
	UF : 1, UT : 4,		CONFIG : 'N U T, 0, 0, 0',
	X =  213.000  mm,	Y =  -6.000  mm,	Z =   -2.000 mm,
	W =-180.000 deg,	P =   0.000 deg,	R =    90.000 deg
};
P[207]{
   GP1:
	UF : 1, UT : 4,		CONFIG : 'N U T, 0, 0, 0',
	X =  213.000  mm,	Y =  -6.000  mm,	Z =   15.000 mm,
	W =-180.000 deg,	P =   0.000 deg,	R =    90.000 deg
};
P[208]{
   GP1:
	UF : 1, UT : 4,		CONFIG : 'N U T, 0, 0, 0',
	X =  216.000  mm,	Y =  -6.000  mm,	Z =   15.000 mm,
	W =-180.000 deg,	P =   0.000 deg,	R =    90.000 deg
};
P[209]{
   GP1:
	UF : 1, UT : 4,		CONFIG : 'N U T, 0, 0, 0',
	X =  216.000  mm,	Y =  -6.000  mm,	Z =   -2.000 mm,
	W =-180.000 deg,	P =   0.000 deg,	R =    90.000 deg
};
P[210]{
   GP1:
	UF : 1, UT : 4,		CONFIG : 'N U T, 0, 0, 0',
	X =  216.000  mm,	Y =  -6.000  mm,	Z =   15.000 mm,
	W =-180.000 deg,	P =   0.000 deg,	R =    90.000 deg
};
P[211]{
   GP1:
	UF : 1, UT : 4,		CONFIG : 'N U T, 0, 0, 0',
	X =  219.000  mm,	Y =  -6.000  mm,	Z =   15.000 mm,
	W =-180.000 deg,	P =   0.000 deg,	R =    90.000 deg
};
P[212]{
   GP1:
	UF : 1, UT : 4,		CONFIG : 'N U T, 0, 0, 0',
	X =  219.000  mm,	Y =  -6.000  mm,	Z =   -2.000 mm,
	W =-180.000 deg,	P =   0.000 deg,	R =    90.000 deg
};
P[213]{
   GP1:
	UF : 1, UT : 4,		CONFIG : 'N U T, 0, 0, 0',
	X =  219.000  mm,	Y =  -6.000  mm,	Z =   15.000 mm,
	W =-180.000 deg,	P =   0.000 deg,	R =    90.000 deg
};
P[214]{
   GP1:
	UF : 1, UT : 4,		CONFIG : 'N U T, 0, 0, 0',
	X =  222.000  mm,	Y =  -6.000  mm,	Z =   15.000 mm,
	W =-180.000 deg,	P =   0.000 deg,	R =    90.000 deg
};
P[215]{
   GP1:
	UF : 1, UT : 4,		CONFIG : 'N U T, 0, 0, 0',
	X =  222.000  mm,	Y =  -6.000  mm,	Z =   -2.000 mm,
	W =-180.000 deg,	P =   0.000 deg,	R =    90.000 deg
};
P[216]{
   GP1:
	UF : 1, UT : 4,		CONFIG : 'N U T, 0, 0, 0',
	X =  222.000  mm,	Y =  -6.000  mm,	Z =   15.000 mm,
	W =-180.000 deg,	P =   0.000 deg,	R =    90.000 deg
};
P[217]{
   GP1:
	UF : 1, UT : 4,		CONFIG : 'N U T, 0, 0, 0',
	X =  225.000  mm,	Y =  -6.000  mm,	Z =   15.000 mm,
	W =-180.000 deg,	P =   0.000 deg,	R =    90.000 deg
};
P[218]{
   GP1:
	UF : 1, UT : 4,		CONFIG : 'N U T, 0, 0, 0',
	X =  225.000  mm,	Y =  -6.000  mm,	Z =   -2.000 mm,
	W =-180.000 deg,	P =   0.000 deg,	R =    90.000 deg
};
P[219]{
   GP1:
	UF : 1, UT : 4,		CONFIG : 'N U T, 0, 0, 0',
	X =  225.000  mm,	Y =  -6.000  mm,	Z =   15.000 mm,
	W =-180.000 deg,	P =   0.000 deg,	R =    90.000 deg
};
P[220]{
   GP1:
	UF : 1, UT : 4,		CONFIG : 'N U T, 0, 0, 0',
	X =  228.000  mm,	Y =  -6.000  mm,	Z =   15.000 mm,
	W =-180.000 deg,	P =   0.000 deg,	R =    90.000 deg
};
P[221]{
   GP1:
	UF : 1, UT : 4,		CONFIG : 'N U T, 0, 0, 0',
	X =  228.000  mm,	Y =  -6.000  mm,	Z =   -2.000 mm,
	W =-180.000 deg,	P =   0.000 deg,	R =    90.000 deg
};
P[222]{
   GP1:
	UF : 1, UT : 4,		CONFIG : 'N U T, 0, 0, 0',
	X =  228.000  mm,	Y =  -6.000  mm,	Z =   15.000 mm,
	W =-180.000 deg,	P =   0.000 deg,	R =    90.000 deg
};
P[223]{
   GP1:
	UF : 1, UT : 4,		CONFIG : 'N U T, 0, 0, 0',
	X =  231.000  mm,	Y =  -6.000  mm,	Z =   15.000 mm,
	W =-180.000 deg,	P =   0.000 deg,	R =    90.000 deg
};
P[224]{
   GP1:
	UF : 1, UT : 4,		CONFIG : 'N U T, 0, 0, 0',
	X =  231.000  mm,	Y =  -6.000  mm,	Z =   -2.000 mm,
	W =-180.000 deg,	P =   0.000 deg,	R =    90.000 deg
};
P[225]{
   GP1:
	UF : 1, UT : 4,		CONFIG : 'N U T, 0, 0, 0',
	X =  231.000  mm,	Y =  -6.000  mm,	Z =   15.000 mm,
	W =-180.000 deg,	P =   0.000 deg,	R =    90.000 deg
};
P[226]{
   GP1:
	UF : 1, UT : 4,		CONFIG : 'N U T, 0, 0, 0',
	X =  234.000  mm,	Y =  -6.000  mm,	Z =   15.000 mm,
	W =-180.000 deg,	P =   0.000 deg,	R =    90.000 deg
};
P[227]{
   GP1:
	UF : 1, UT : 4,		CONFIG : 'N U T, 0, 0, 0',
	X =  234.000  mm,	Y =  -6.000  mm,	Z =   -2.000 mm,
	W =-180.000 deg,	P =   0.000 deg,	R =    90.000 deg
};
P[228]{
   GP1:
	UF : 1, UT : 4,		CONFIG : 'N U T, 0, 0, 0',
	X =  234.000  mm,	Y =  -6.000  mm,	Z =   15.000 mm,
	W =-180.000 deg,	P =   0.000 deg,	R =    90.000 deg
};
P[229]{
   GP1:
	UF : 1, UT : 4,		CONFIG : 'N U T, 0, 0, 0',
	X =  237.000  mm,	Y =  -6.000  mm,	Z =   15.000 mm,
	W =-180.000 deg,	P =   0.000 deg,	R =    90.000 deg
};
P[230]{
   GP1:
	UF : 1, UT : 4,		CONFIG : 'N U T, 0, 0, 0',
	X =  237.000  mm,	Y =  -6.000  mm,	Z =   -2.000 mm,
	W =-180.000 deg,	P =   0.000 deg,	R =    90.000 deg
};
P[231]{
   GP1:
	UF : 1, UT : 4,		CONFIG : 'N U T, 0, 0, 0',
	X =  237.000  mm,	Y =  -6.000  mm,	Z =   15.000 mm,
	W =-180.000 deg,	P =   0.000 deg,	R =    90.000 deg
};
P[232]{
   GP1:
	UF : 1, UT : 4,		CONFIG : 'N U T, 0, 0, 0',
	X =  0.000  mm,	Y =  -3.000  mm,	Z =   15.000 mm,
	W =-180.000 deg,	P =   0.000 deg,	R =    90.000 deg
};
P[233]{
   GP1:
	UF : 1, UT : 4,		CONFIG : 'N U T, 0, 0, 0',
	X =  0.000  mm,	Y =  -3.000  mm,	Z =   -2.000 mm,
	W =-180.000 deg,	P =   0.000 deg,	R =    90.000 deg
};
P[234]{
   GP1:
	UF : 1, UT : 4,		CONFIG : 'N U T, 0, 0, 0',
	X =  0.000  mm,	Y =  -3.000  mm,	Z =   15.000 mm,
	W =-180.000 deg,	P =   0.000 deg,	R =    90.000 deg
};
P[235]{
   GP1:
	UF : 1, UT : 4,		CONFIG : 'N U T, 0, 0, 0',
	X =  3.000  mm,	Y =  -3.000  mm,	Z =   15.000 mm,
	W =-180.000 deg,	P =   0.000 deg,	R =    90.000 deg
};
P[236]{
   GP1:
	UF : 1, UT : 4,		CONFIG : 'N U T, 0, 0, 0',
	X =  3.000  mm,	Y =  -3.000  mm,	Z =   -2.000 mm,
	W =-180.000 deg,	P =   0.000 deg,	R =    90.000 deg
};
P[237]{
   GP1:
	UF : 1, UT : 4,		CONFIG : 'N U T, 0, 0, 0',
	X =  3.000  mm,	Y =  -3.000  mm,	Z =   15.000 mm,
	W =-180.000 deg,	P =   0.000 deg,	R =    90.000 deg
};
P[238]{
   GP1:
	UF : 1, UT : 4,		CONFIG : 'N U T, 0, 0, 0',
	X =  6.000  mm,	Y =  -3.000  mm,	Z =   15.000 mm,
	W =-180.000 deg,	P =   0.000 deg,	R =    90.000 deg
};
P[239]{
   GP1:
	UF : 1, UT : 4,		CONFIG : 'N U T, 0, 0, 0',
	X =  6.000  mm,	Y =  -3.000  mm,	Z =   -2.000 mm,
	W =-180.000 deg,	P =   0.000 deg,	R =    90.000 deg
};
P[240]{
   GP1:
	UF : 1, UT : 4,		CONFIG : 'N U T, 0, 0, 0',
	X =  6.000  mm,	Y =  -3.000  mm,	Z =   15.000 mm,
	W =-180.000 deg,	P =   0.000 deg,	R =    90.000 deg
};
P[241]{
   GP1:
	UF : 1, UT : 4,		CONFIG : 'N U T, 0, 0, 0',
	X =  9.000  mm,	Y =  -3.000  mm,	Z =   15.000 mm,
	W =-180.000 deg,	P =   0.000 deg,	R =    90.000 deg
};
P[242]{
   GP1:
	UF : 1, UT : 4,		CONFIG : 'N U T, 0, 0, 0',
	X =  9.000  mm,	Y =  -3.000  mm,	Z =   -2.000 mm,
	W =-180.000 deg,	P =   0.000 deg,	R =    90.000 deg
};
P[243]{
   GP1:
	UF : 1, UT : 4,		CONFIG : 'N U T, 0, 0, 0',
	X =  9.000  mm,	Y =  -3.000  mm,	Z =   15.000 mm,
	W =-180.000 deg,	P =   0.000 deg,	R =    90.000 deg
};
P[244]{
   GP1:
	UF : 1, UT : 4,		CONFIG : 'N U T, 0, 0, 0',
	X =  12.000  mm,	Y =  -3.000  mm,	Z =   15.000 mm,
	W =-180.000 deg,	P =   0.000 deg,	R =    90.000 deg
};
P[245]{
   GP1:
	UF : 1, UT : 4,		CONFIG : 'N U T, 0, 0, 0',
	X =  12.000  mm,	Y =  -3.000  mm,	Z =   -2.000 mm,
	W =-180.000 deg,	P =   0.000 deg,	R =    90.000 deg
};
P[246]{
   GP1:
	UF : 1, UT : 4,		CONFIG : 'N U T, 0, 0, 0',
	X =  12.000  mm,	Y =  -3.000  mm,	Z =   15.000 mm,
	W =-180.000 deg,	P =   0.000 deg,	R =    90.000 deg
};
P[247]{
   GP1:
	UF : 1, UT : 4,		CONFIG : 'N U T, 0, 0, 0',
	X =  15.000  mm,	Y =  -3.000  mm,	Z =   15.000 mm,
	W =-180.000 deg,	P =   0.000 deg,	R =    90.000 deg
};
P[248]{
   GP1:
	UF : 1, UT : 4,		CONFIG : 'N U T, 0, 0, 0',
	X =  15.000  mm,	Y =  -3.000  mm,	Z =   -2.000 mm,
	W =-180.000 deg,	P =   0.000 deg,	R =    90.000 deg
};
P[249]{
   GP1:
	UF : 1, UT : 4,		CONFIG : 'N U T, 0, 0, 0',
	X =  15.000  mm,	Y =  -3.000  mm,	Z =   15.000 mm,
	W =-180.000 deg,	P =   0.000 deg,	R =    90.000 deg
};
P[250]{
   GP1:
	UF : 1, UT : 4,		CONFIG : 'N U T, 0, 0, 0',
	X =  18.000  mm,	Y =  -3.000  mm,	Z =   15.000 mm,
	W =-180.000 deg,	P =   0.000 deg,	R =    90.000 deg
};
P[251]{
   GP1:
	UF : 1, UT : 4,		CONFIG : 'N U T, 0, 0, 0',
	X =  18.000  mm,	Y =  -3.000  mm,	Z =   -2.000 mm,
	W =-180.000 deg,	P =   0.000 deg,	R =    90.000 deg
};
P[252]{
   GP1:
	UF : 1, UT : 4,		CONFIG : 'N U T, 0, 0, 0',
	X =  18.000  mm,	Y =  -3.000  mm,	Z =   15.000 mm,
	W =-180.000 deg,	P =   0.000 deg,	R =    90.000 deg
};
P[253]{
   GP1:
	UF : 1, UT : 4,		CONFIG : 'N U T, 0, 0, 0',
	X =  21.000  mm,	Y =  -3.000  mm,	Z =   15.000 mm,
	W =-180.000 deg,	P =   0.000 deg,	R =    90.000 deg
};
P[254]{
   GP1:
	UF : 1, UT : 4,		CONFIG : 'N U T, 0, 0, 0',
	X =  21.000  mm,	Y =  -3.000  mm,	Z =   -2.000 mm,
	W =-180.000 deg,	P =   0.000 deg,	R =    90.000 deg
};
P[255]{
   GP1:
	UF : 1, UT : 4,		CONFIG : 'N U T, 0, 0, 0',
	X =  21.000  mm,	Y =  -3.000  mm,	Z =   15.000 mm,
	W =-180.000 deg,	P =   0.000 deg,	R =    90.000 deg
};
P[256]{
   GP1:
	UF : 1, UT : 4,		CONFIG : 'N U T, 0, 0, 0',
	X =  24.000  mm,	Y =  -3.000  mm,	Z =   15.000 mm,
	W =-180.000 deg,	P =   0.000 deg,	R =    90.000 deg
};
P[257]{
   GP1:
	UF : 1, UT : 4,		CONFIG : 'N U T, 0, 0, 0',
	X =  24.000  mm,	Y =  -3.000  mm,	Z =   -2.000 mm,
	W =-180.000 deg,	P =   0.000 deg,	R =    90.000 deg
};
P[258]{
   GP1:
	UF : 1, UT : 4,		CONFIG : 'N U T, 0, 0, 0',
	X =  24.000  mm,	Y =  -3.000  mm,	Z =   15.000 mm,
	W =-180.000 deg,	P =   0.000 deg,	R =    90.000 deg
};
P[259]{
   GP1:
	UF : 1, UT : 4,		CONFIG : 'N U T, 0, 0, 0',
	X =  30.000  mm,	Y =  -3.000  mm,	Z =   15.000 mm,
	W =-180.000 deg,	P =   0.000 deg,	R =    90.000 deg
};
P[260]{
   GP1:
	UF : 1, UT : 4,		CONFIG : 'N U T, 0, 0, 0',
	X =  30.000  mm,	Y =  -3.000  mm,	Z =   0.000 mm,
	W =-180.000 deg,	P =   0.000 deg,	R =    90.000 deg
};
P[261]{
   GP1:
	UF : 1, UT : 4,		CONFIG : 'N U T, 0, 0, 0',
	X =  30.000  mm,	Y =  -3.000  mm,	Z =   15.000 mm,
	W =-180.000 deg,	P =   0.000 deg,	R =    90.000 deg
};
P[262]{
   GP1:
	UF : 1, UT : 4,		CONFIG : 'N U T, 0, 0, 0',
	X =  33.000  mm,	Y =  -3.000  mm,	Z =   15.000 mm,
	W =-180.000 deg,	P =   0.000 deg,	R =    90.000 deg
};
P[263]{
   GP1:
	UF : 1, UT : 4,		CONFIG : 'N U T, 0, 0, 0',
	X =  33.000  mm,	Y =  -3.000  mm,	Z =   0.000 mm,
	W =-180.000 deg,	P =   0.000 deg,	R =    90.000 deg
};
P[264]{
   GP1:
	UF : 1, UT : 4,		CONFIG : 'N U T, 0, 0, 0',
	X =  33.000  mm,	Y =  -3.000  mm,	Z =   15.000 mm,
	W =-180.000 deg,	P =   0.000 deg,	R =    90.000 deg
};
P[547]{
   GP1:
	UF : 1, UT : 4,		CONFIG : 'N U T, 0, 0, 0',
	X =  169.000  mm,	Y =  1.000  mm,	Z =   15.000 mm,
	W =-180.000 deg,	P =   0.000 deg,	R =    90.000 deg
};
P[548]{
   GP1:
	UF : 1, UT : 4,		CONFIG : 'N U T, 0, 0, 0',
	X =  169.000  mm,	Y =  1.000  mm,	Z =   -1.000 mm,
	W =-180.000 deg,	P =   0.000 deg,	R =    90.000 deg
};
P[549]{
   GP1:
	UF : 1, UT : 4,		CONFIG : 'N U T, 0, 0, 0',
	X =  169.000  mm,	Y =  1.000  mm,	Z =   15.000 mm,
	W =-180.000 deg,	P =   0.000 deg,	R =    90.000 deg
};
P[709]{
   GP1:
	UF : 1, UT : 4,		CONFIG : 'N U T, 0, 0, 0',
	X =  151.000  mm,	Y =  4.000  mm,	Z =   15.000 mm,
	W =-180.000 deg,	P =   0.000 deg,	R =    90.000 deg
};
P[710]{
   GP1:
	UF : 1, UT : 4,		CONFIG : 'N U T, 0, 0, 0',
	X =  151.000  mm,	Y =  4.000  mm,	Z =   -1.000 mm,
	W =-180.000 deg,	P =   0.000 deg,	R =    90.000 deg
};
P[711]{
   GP1:
	UF : 1, UT : 4,		CONFIG : 'N U T, 0, 0, 0',
	X =  151.000  mm,	Y =  4.000  mm,	Z =   15.000 mm,
	W =-180.000 deg,	P =   0.000 deg,	R =    90.000 deg
};
P[871]{
   GP1:
	UF : 1, UT : 4,		CONFIG : 'N U T, 0, 0, 0',
	X =  157.000  mm,	Y =  7.000  mm,	Z =   15.000 mm,
	W =-180.000 deg,	P =   0.000 deg,	R =    90.000 deg
};
P[872]{
   GP1:
	UF : 1, UT : 4,		CONFIG : 'N U T, 0, 0, 0',
	X =  157.000  mm,	Y =  7.000  mm,	Z =   -1.000 mm,
	W =-180.000 deg,	P =   0.000 deg,	R =    90.000 deg
};
P[873]{
   GP1:
	UF : 1, UT : 4,		CONFIG : 'N U T, 0, 0, 0',
	X =  157.000  mm,	Y =  7.000  mm,	Z =   15.000 mm,
	W =-180.000 deg,	P =   0.000 deg,	R =    90.000 deg
};
P[1030]{
   GP1:
	UF : 1, UT : 4,		CONFIG : 'N U T, 0, 0, 0',
	X =  154.000  mm,	Y =  10.000  mm,	Z =   15.000 mm,
	W =-180.000 deg,	P =   0.000 deg,	R =    90.000 deg
};
P[1031]{
   GP1:
	UF : 1, UT : 4,		CONFIG : 'N U T, 0, 0, 0',
	X =  154.000  mm,	Y =  10.000  mm,	Z =   -1.000 mm,
	W =-180.000 deg,	P =   0.000 deg,	R =    90.000 deg
};
P[1032]{
   GP1:
	UF : 1, UT : 4,		CONFIG : 'N U T, 0, 0, 0',
	X =  154.000  mm,	Y =  10.000  mm,	Z =   15.000 mm,
	W =-180.000 deg,	P =   0.000 deg,	R =    90.000 deg
};
P[1351]{
   GP1:
	UF : 1, UT : 4,		CONFIG : 'N U T, 0, 0, 0',
	X =  172.000  mm,	Y =  16.000  mm,	Z =   15.000 mm,
	W =-180.000 deg,	P =   0.000 deg,	R =    90.000 deg
};
P[1352]{
   GP1:
	UF : 1, UT : 4,		CONFIG : 'N U T, 0, 0, 0',
	X =  172.000  mm,	Y =  16.000  mm,	Z =   -1.000 mm,
	W =-180.000 deg,	P =   0.000 deg,	R =    90.000 deg
};
P[1353]{
   GP1:
	UF : 1, UT : 4,		CONFIG : 'N U T, 0, 0, 0',
	X =  172.000  mm,	Y =  16.000  mm,	Z =   15.000 mm,
	W =-180.000 deg,	P =   0.000 deg,	R =    90.000 deg
};
P[1504]{
   GP1:
	UF : 1, UT : 4,		CONFIG : 'N U T, 0, 0, 0',
	X =  163.000  mm,	Y =  19.000  mm,	Z =   15.000 mm,
	W =-180.000 deg,	P =   0.000 deg,	R =    90.000 deg
};
P[1505]{
   GP1:
	UF : 1, UT : 4,		CONFIG : 'N U T, 0, 0, 0',
	X =  163.000  mm,	Y =  19.000  mm,	Z =   -1.000 mm,
	W =-180.000 deg,	P =   0.000 deg,	R =    90.000 deg
};
P[1506]{
   GP1:
	UF : 1, UT : 4,		CONFIG : 'N U T, 0, 0, 0',
	X =  163.000  mm,	Y =  19.000  mm,	Z =   15.000 mm,
	W =-180.000 deg,	P =   0.000 deg,	R =    90.000 deg
};
P[1651]{
   GP1:
	UF : 1, UT : 4,		CONFIG : 'N U T, 0, 0, 0',
	X =  166.000  mm,	Y =  22.000  mm,	Z =   15.000 mm,
	W =-180.000 deg,	P =   0.000 deg,	R =    90.000 deg
};
P[1652]{
   GP1:
	UF : 1, UT : 4,		CONFIG : 'N U T, 0, 0, 0',
	X =  166.000  mm,	Y =  22.000  mm,	Z =   -1.000 mm,
	W =-180.000 deg,	P =   0.000 deg,	R =    90.000 deg
};
P[1653]{
   GP1:
	UF : 1, UT : 4,		CONFIG : 'N U T, 0, 0, 0',
	X =  166.000  mm,	Y =  22.000  mm,	Z =   15.000 mm,
	W =-180.000 deg,	P =   0.000 deg,	R =    90.000 deg
};
P[1942]{
   GP1:
	UF : 1, UT : 4,		CONFIG : 'N U T, 0, 0, 0',
	X =  169.000  mm,	Y =  28.000  mm,	Z =   15.000 mm,
	W =-180.000 deg,	P =   0.000 deg,	R =    90.000 deg
};
P[1943]{
   GP1:
	UF : 1, UT : 4,		CONFIG : 'N U T, 0, 0, 0',
	X =  169.000  mm,	Y =  28.000  mm,	Z =   -1.000 mm,
	W =-180.000 deg,	P =   0.000 deg,	R =    90.000 deg
};
P[1944]{
   GP1:
	UF : 1, UT : 4,		CONFIG : 'N U T, 0, 0, 0',
	X =  169.000  mm,	Y =  28.000  mm,	Z =   15.000 mm,
	W =-180.000 deg,	P =   0.000 deg,	R =    90.000 deg
};
P[2245]{
   GP1:
	UF : 1, UT : 4,		CONFIG : 'N U T, 0, 0, 0',
	X =  154.000  mm,	Y =  34.000  mm,	Z =   15.000 mm,
	W =-180.000 deg,	P =   0.000 deg,	R =    90.000 deg
};
P[2246]{
   GP1:
	UF : 1, UT : 4,		CONFIG : 'N U T, 0, 0, 0',
	X =  154.000  mm,	Y =  34.000  mm,	Z =   -1.000 mm,
	W =-180.000 deg,	P =   0.000 deg,	R =    90.000 deg
};
P[2247]{
   GP1:
	UF : 1, UT : 4,		CONFIG : 'N U T, 0, 0, 0',
	X =  154.000  mm,	Y =  34.000  mm,	Z =   15.000 mm,
	W =-180.000 deg,	P =   0.000 deg,	R =    90.000 deg
};
P[2788]{
   GP1:
	UF : 1, UT : 4,		CONFIG : 'N U T, 0, 0, 0',
	X =  115.000  mm,	Y =  46.000  mm,	Z =   15.000 mm,
	W =-180.000 deg,	P =   0.000 deg,	R =    90.000 deg
};
P[2789]{
   GP1:
	UF : 1, UT : 4,		CONFIG : 'N U T, 0, 0, 0',
	X =  115.000  mm,	Y =  46.000  mm,	Z =   -1.000 mm,
	W =-180.000 deg,	P =   0.000 deg,	R =    90.000 deg
};
P[2790]{
   GP1:
	UF : 1, UT : 4,		CONFIG : 'N U T, 0, 0, 0',
	X =  115.000  mm,	Y =  46.000  mm,	Z =   15.000 mm,
	W =-180.000 deg,	P =   0.000 deg,	R =    90.000 deg
};
P[2821]{
   GP1:
	UF : 1, UT : 4,		CONFIG : 'N U T, 0, 0, 0',
	X =  157.000  mm,	Y =  46.000  mm,	Z =   15.000 mm,
	W =-180.000 deg,	P =   0.000 deg,	R =    90.000 deg
};
P[2822]{
   GP1:
	UF : 1, UT : 4,		CONFIG : 'N U T, 0, 0, 0',
	X =  157.000  mm,	Y =  46.000  mm,	Z =   -1.000 mm,
	W =-180.000 deg,	P =   0.000 deg,	R =    90.000 deg
};
P[2823]{
   GP1:
	UF : 1, UT : 4,		CONFIG : 'N U T, 0, 0, 0',
	X =  157.000  mm,	Y =  46.000  mm,	Z =   15.000 mm,
	W =-180.000 deg,	P =   0.000 deg,	R =    90.000 deg
};
P[2944]{
   GP1:
	UF : 1, UT : 4,		CONFIG : 'N U T, 0, 0, 0',
	X =  115.000  mm,	Y =  49.000  mm,	Z =   15.000 mm,
	W =-180.000 deg,	P =   0.000 deg,	R =    90.000 deg
};
P[2945]{
   GP1:
	UF : 1, UT : 4,		CONFIG : 'N U T, 0, 0, 0',
	X =  115.000  mm,	Y =  49.000  mm,	Z =   -1.000 mm,
	W =-180.000 deg,	P =   0.000 deg,	R =    90.000 deg
};
P[2946]{
   GP1:
	UF : 1, UT : 4,		CONFIG : 'N U T, 0, 0, 0',
	X =  115.000  mm,	Y =  49.000  mm,	Z =   15.000 mm,
	W =-180.000 deg,	P =   0.000 deg,	R =    90.000 deg
};
P[2962]{
   GP1:
	UF : 1, UT : 4,		CONFIG : 'N U T, 0, 0, 0',
	X =  139.000  mm,	Y =  49.000  mm,	Z =   15.000 mm,
	W =-180.000 deg,	P =   0.000 deg,	R =    90.000 deg
};
P[2963]{
   GP1:
	UF : 1, UT : 4,		CONFIG : 'N U T, 0, 0, 0',
	X =  139.000  mm,	Y =  49.000  mm,	Z =   -1.000 mm,
	W =-180.000 deg,	P =   0.000 deg,	R =    90.000 deg
};
P[2964]{
   GP1:
	UF : 1, UT : 4,		CONFIG : 'N U T, 0, 0, 0',
	X =  139.000  mm,	Y =  49.000  mm,	Z =   15.000 mm,
	W =-180.000 deg,	P =   0.000 deg,	R =    90.000 deg
};
P[2980]{
   GP1:
	UF : 1, UT : 4,		CONFIG : 'N U T, 0, 0, 0',
	X =  157.000  mm,	Y =  49.000  mm,	Z =   15.000 mm,
	W =-180.000 deg,	P =   0.000 deg,	R =    90.000 deg
};
P[2981]{
   GP1:
	UF : 1, UT : 4,		CONFIG : 'N U T, 0, 0, 0',
	X =  157.000  mm,	Y =  49.000  mm,	Z =   -1.000 mm,
	W =-180.000 deg,	P =   0.000 deg,	R =    90.000 deg
};
P[2982]{
   GP1:
	UF : 1, UT : 4,		CONFIG : 'N U T, 0, 0, 0',
	X =  157.000  mm,	Y =  49.000  mm,	Z =   15.000 mm,
	W =-180.000 deg,	P =   0.000 deg,	R =    90.000 deg
};
P[2983]{
   GP1:
	UF : 1, UT : 4,		CONFIG : 'N U T, 0, 0, 0',
	X =  160.000  mm,	Y =  49.000  mm,	Z =   15.000 mm,
	W =-180.000 deg,	P =   0.000 deg,	R =    90.000 deg
};
P[2984]{
   GP1:
	UF : 1, UT : 4,		CONFIG : 'N U T, 0, 0, 0',
	X =  160.000  mm,	Y =  49.000  mm,	Z =   -1.000 mm,
	W =-180.000 deg,	P =   0.000 deg,	R =    90.000 deg
};
P[2985]{
   GP1:
	UF : 1, UT : 4,		CONFIG : 'N U T, 0, 0, 0',
	X =  160.000  mm,	Y =  49.000  mm,	Z =   15.000 mm,
	W =-180.000 deg,	P =   0.000 deg,	R =    90.000 deg
};
P[3130]{
   GP1:
	UF : 1, UT : 4,		CONFIG : 'N U T, 0, 0, 0',
	X =  157.000  mm,	Y =  52.000  mm,	Z =   15.000 mm,
	W =-180.000 deg,	P =   0.000 deg,	R =    90.000 deg
};
P[3131]{
   GP1:
	UF : 1, UT : 4,		CONFIG : 'N U T, 0, 0, 0',
	X =  157.000  mm,	Y =  52.000  mm,	Z =   -1.000 mm,
	W =-180.000 deg,	P =   0.000 deg,	R =    90.000 deg
};
P[3132]{
   GP1:
	UF : 1, UT : 4,		CONFIG : 'N U T, 0, 0, 0',
	X =  157.000  mm,	Y =  52.000  mm,	Z =   15.000 mm,
	W =-180.000 deg,	P =   0.000 deg,	R =    90.000 deg
};
P[3265]{
   GP1:
	UF : 1, UT : 4,		CONFIG : 'N U T, 0, 0, 0',
	X =  142.000  mm,	Y =  55.000  mm,	Z =   15.000 mm,
	W =-180.000 deg,	P =   0.000 deg,	R =    90.000 deg
};
P[3266]{
   GP1:
	UF : 1, UT : 4,		CONFIG : 'N U T, 0, 0, 0',
	X =  142.000  mm,	Y =  55.000  mm,	Z =   -1.000 mm,
	W =-180.000 deg,	P =   0.000 deg,	R =    90.000 deg
};
P[3267]{
   GP1:
	UF : 1, UT : 4,		CONFIG : 'N U T, 0, 0, 0',
	X =  142.000  mm,	Y =  55.000  mm,	Z =   15.000 mm,
	W =-180.000 deg,	P =   0.000 deg,	R =    90.000 deg
};
P[3271]{
   GP1:
	UF : 1, UT : 4,		CONFIG : 'N U T, 0, 0, 0',
	X =  157.000  mm,	Y =  55.000  mm,	Z =   15.000 mm,
	W =-180.000 deg,	P =   0.000 deg,	R =    90.000 deg
};
P[3272]{
   GP1:
	UF : 1, UT : 4,		CONFIG : 'N U T, 0, 0, 0',
	X =  157.000  mm,	Y =  55.000  mm,	Z =   -1.000 mm,
	W =-180.000 deg,	P =   0.000 deg,	R =    90.000 deg
};
P[3273]{
   GP1:
	UF : 1, UT : 4,		CONFIG : 'N U T, 0, 0, 0',
	X =  157.000  mm,	Y =  55.000  mm,	Z =   15.000 mm,
	W =-180.000 deg,	P =   0.000 deg,	R =    90.000 deg
};
P[3415]{
   GP1:
	UF : 1, UT : 4,		CONFIG : 'N U T, 0, 0, 0',
	X =  157.000  mm,	Y =  58.000  mm,	Z =   15.000 mm,
	W =-180.000 deg,	P =   0.000 deg,	R =    90.000 deg
};
P[3416]{
   GP1:
	UF : 1, UT : 4,		CONFIG : 'N U T, 0, 0, 0',
	X =  157.000  mm,	Y =  58.000  mm,	Z =   -1.000 mm,
	W =-180.000 deg,	P =   0.000 deg,	R =    90.000 deg
};
P[3417]{
   GP1:
	UF : 1, UT : 4,		CONFIG : 'N U T, 0, 0, 0',
	X =  157.000  mm,	Y =  58.000  mm,	Z =   15.000 mm,
	W =-180.000 deg,	P =   0.000 deg,	R =    90.000 deg
};
P[3685]{
   GP1:
	UF : 1, UT : 4,		CONFIG : 'N U T, 0, 0, 0',
	X =  118.000  mm,	Y =  64.000  mm,	Z =   15.000 mm,
	W =-180.000 deg,	P =   0.000 deg,	R =    90.000 deg
};
P[3686]{
   GP1:
	UF : 1, UT : 4,		CONFIG : 'N U T, 0, 0, 0',
	X =  118.000  mm,	Y =  64.000  mm,	Z =   -1.000 mm,
	W =-180.000 deg,	P =   0.000 deg,	R =    90.000 deg
};
P[3687]{
   GP1:
	UF : 1, UT : 4,		CONFIG : 'N U T, 0, 0, 0',
	X =  118.000  mm,	Y =  64.000  mm,	Z =   15.000 mm,
	W =-180.000 deg,	P =   0.000 deg,	R =    90.000 deg
};
P[3688]{
   GP1:
	UF : 1, UT : 4,		CONFIG : 'N U T, 0, 0, 0',
	X =  121.000  mm,	Y =  64.000  mm,	Z =   15.000 mm,
	W =-180.000 deg,	P =   0.000 deg,	R =    90.000 deg
};
P[3689]{
   GP1:
	UF : 1, UT : 4,		CONFIG : 'N U T, 0, 0, 0',
	X =  121.000  mm,	Y =  64.000  mm,	Z =   -1.000 mm,
	W =-180.000 deg,	P =   0.000 deg,	R =    90.000 deg
};
P[3690]{
   GP1:
	UF : 1, UT : 4,		CONFIG : 'N U T, 0, 0, 0',
	X =  121.000  mm,	Y =  64.000  mm,	Z =   15.000 mm,
	W =-180.000 deg,	P =   0.000 deg,	R =    90.000 deg
};
P[3694]{
   GP1:
	UF : 1, UT : 4,		CONFIG : 'N U T, 0, 0, 0',
	X =  133.000  mm,	Y =  64.000  mm,	Z =   15.000 mm,
	W =-180.000 deg,	P =   0.000 deg,	R =    90.000 deg
};
P[3695]{
   GP1:
	UF : 1, UT : 4,		CONFIG : 'N U T, 0, 0, 0',
	X =  133.000  mm,	Y =  64.000  mm,	Z =   -1.000 mm,
	W =-180.000 deg,	P =   0.000 deg,	R =    90.000 deg
};
P[3696]{
   GP1:
	UF : 1, UT : 4,		CONFIG : 'N U T, 0, 0, 0',
	X =  133.000  mm,	Y =  64.000  mm,	Z =   15.000 mm,
	W =-180.000 deg,	P =   0.000 deg,	R =    90.000 deg
};
P[4120]{
   GP1:
	UF : 1, UT : 4,		CONFIG : 'N U T, 0, 0, 0',
	X =  148.000  mm,	Y =  73.000  mm,	Z =   15.000 mm,
	W =-180.000 deg,	P =   0.000 deg,	R =    90.000 deg
};
P[4121]{
   GP1:
	UF : 1, UT : 4,		CONFIG : 'N U T, 0, 0, 0',
	X =  148.000  mm,	Y =  73.000  mm,	Z =   -1.000 mm,
	W =-180.000 deg,	P =   0.000 deg,	R =    90.000 deg
};
P[4122]{
   GP1:
	UF : 1, UT : 4,		CONFIG : 'N U T, 0, 0, 0',
	X =  148.000  mm,	Y =  73.000  mm,	Z =   15.000 mm,
	W =-180.000 deg,	P =   0.000 deg,	R =    90.000 deg
};
P[4144]{
   GP1:
	UF : 1, UT : 4,		CONFIG : 'N U T, 0, 0, 0',
	X =  10.000  mm,	Y =  76.000  mm,	Z =   15.000 mm,
	W =-180.000 deg,	P =   0.000 deg,	R =    90.000 deg
};
P[4145]{
   GP1:
	UF : 1, UT : 4,		CONFIG : 'N U T, 0, 0, 0',
	X =  10.000  mm,	Y =  76.000  mm,	Z =   -1.000 mm,
	W =-180.000 deg,	P =   0.000 deg,	R =    90.000 deg
};
P[4146]{
   GP1:
	UF : 1, UT : 4,		CONFIG : 'N U T, 0, 0, 0',
	X =  10.000  mm,	Y =  76.000  mm,	Z =   15.000 mm,
	W =-180.000 deg,	P =   0.000 deg,	R =    90.000 deg
};
P[4147]{
   GP1:
	UF : 1, UT : 4,		CONFIG : 'N U T, 0, 0, 0',
	X =  13.000  mm,	Y =  76.000  mm,	Z =   15.000 mm,
	W =-180.000 deg,	P =   0.000 deg,	R =    90.000 deg
};
P[4148]{
   GP1:
	UF : 1, UT : 4,		CONFIG : 'N U T, 0, 0, 0',
	X =  13.000  mm,	Y =  76.000  mm,	Z =   -1.000 mm,
	W =-180.000 deg,	P =   0.000 deg,	R =    90.000 deg
};
P[4149]{
   GP1:
	UF : 1, UT : 4,		CONFIG : 'N U T, 0, 0, 0',
	X =  13.000  mm,	Y =  76.000  mm,	Z =   15.000 mm,
	W =-180.000 deg,	P =   0.000 deg,	R =    90.000 deg
};
P[4270]{
   GP1:
	UF : 1, UT : 4,		CONFIG : 'N U T, 0, 0, 0',
	X =  10.000  mm,	Y =  79.000  mm,	Z =   15.000 mm,
	W =-180.000 deg,	P =   0.000 deg,	R =    90.000 deg
};
P[4271]{
   GP1:
	UF : 1, UT : 4,		CONFIG : 'N U T, 0, 0, 0',
	X =  10.000  mm,	Y =  79.000  mm,	Z =   -1.000 mm,
	W =-180.000 deg,	P =   0.000 deg,	R =    90.000 deg
};
P[4272]{
   GP1:
	UF : 1, UT : 4,		CONFIG : 'N U T, 0, 0, 0',
	X =  10.000  mm,	Y =  79.000  mm,	Z =   15.000 mm,
	W =-180.000 deg,	P =   0.000 deg,	R =    90.000 deg
};
P[4273]{
   GP1:
	UF : 1, UT : 4,		CONFIG : 'N U T, 0, 0, 0',
	X =  13.000  mm,	Y =  79.000  mm,	Z =   15.000 mm,
	W =-180.000 deg,	P =   0.000 deg,	R =    90.000 deg
};
P[4274]{
   GP1:
	UF : 1, UT : 4,		CONFIG : 'N U T, 0, 0, 0',
	X =  13.000  mm,	Y =  79.000  mm,	Z =   -1.000 mm,
	W =-180.000 deg,	P =   0.000 deg,	R =    90.000 deg
};
P[4275]{
   GP1:
	UF : 1, UT : 4,		CONFIG : 'N U T, 0, 0, 0',
	X =  13.000  mm,	Y =  79.000  mm,	Z =   15.000 mm,
	W =-180.000 deg,	P =   0.000 deg,	R =    90.000 deg
};
P[4276]{
   GP1:
	UF : 1, UT : 4,		CONFIG : 'N U T, 0, 0, 0',
	X =  19.000  mm,	Y =  79.000  mm,	Z =   15.000 mm,
	W =-180.000 deg,	P =   0.000 deg,	R =    90.000 deg
};
P[4277]{
   GP1:
	UF : 1, UT : 4,		CONFIG : 'N U T, 0, 0, 0',
	X =  19.000  mm,	Y =  79.000  mm,	Z =   -1.000 mm,
	W =-180.000 deg,	P =   0.000 deg,	R =    90.000 deg
};
P[4278]{
   GP1:
	UF : 1, UT : 4,		CONFIG : 'N U T, 0, 0, 0',
	X =  19.000  mm,	Y =  79.000  mm,	Z =   15.000 mm,
	W =-180.000 deg,	P =   0.000 deg,	R =    90.000 deg
};
P[4279]{
   GP1:
	UF : 1, UT : 4,		CONFIG : 'N U T, 0, 0, 0',
	X =  22.000  mm,	Y =  79.000  mm,	Z =   15.000 mm,
	W =-180.000 deg,	P =   0.000 deg,	R =    90.000 deg
};
P[4280]{
   GP1:
	UF : 1, UT : 4,		CONFIG : 'N U T, 0, 0, 0',
	X =  22.000  mm,	Y =  79.000  mm,	Z =   -1.000 mm,
	W =-180.000 deg,	P =   0.000 deg,	R =    90.000 deg
};
P[4281]{
   GP1:
	UF : 1, UT : 4,		CONFIG : 'N U T, 0, 0, 0',
	X =  22.000  mm,	Y =  79.000  mm,	Z =   15.000 mm,
	W =-180.000 deg,	P =   0.000 deg,	R =    90.000 deg
};
P[4282]{
   GP1:
	UF : 1, UT : 4,		CONFIG : 'N U T, 0, 0, 0',
	X =  25.000  mm,	Y =  79.000  mm,	Z =   15.000 mm,
	W =-180.000 deg,	P =   0.000 deg,	R =    90.000 deg
};
P[4283]{
   GP1:
	UF : 1, UT : 4,		CONFIG : 'N U T, 0, 0, 0',
	X =  25.000  mm,	Y =  79.000  mm,	Z =   -1.000 mm,
	W =-180.000 deg,	P =   0.000 deg,	R =    90.000 deg
};
P[4284]{
   GP1:
	UF : 1, UT : 4,		CONFIG : 'N U T, 0, 0, 0',
	X =  25.000  mm,	Y =  79.000  mm,	Z =   15.000 mm,
	W =-180.000 deg,	P =   0.000 deg,	R =    90.000 deg
};
P[4285]{
   GP1:
	UF : 1, UT : 4,		CONFIG : 'N U T, 0, 0, 0',
	X =  28.000  mm,	Y =  79.000  mm,	Z =   15.000 mm,
	W =-180.000 deg,	P =   0.000 deg,	R =    90.000 deg
};
P[4286]{
   GP1:
	UF : 1, UT : 4,		CONFIG : 'N U T, 0, 0, 0',
	X =  28.000  mm,	Y =  79.000  mm,	Z =   -1.000 mm,
	W =-180.000 deg,	P =   0.000 deg,	R =    90.000 deg
};
P[4287]{
   GP1:
	UF : 1, UT : 4,		CONFIG : 'N U T, 0, 0, 0',
	X =  28.000  mm,	Y =  79.000  mm,	Z =   15.000 mm,
	W =-180.000 deg,	P =   0.000 deg,	R =    90.000 deg
};
P[4405]{
   GP1:
	UF : 1, UT : 4,		CONFIG : 'N U T, 0, 0, 0',
	X =  10.000  mm,	Y =  82.000  mm,	Z =   15.000 mm,
	W =-180.000 deg,	P =   0.000 deg,	R =    90.000 deg
};
P[4406]{
   GP1:
	UF : 1, UT : 4,		CONFIG : 'N U T, 0, 0, 0',
	X =  10.000  mm,	Y =  82.000  mm,	Z =   -1.000 mm,
	W =-180.000 deg,	P =   0.000 deg,	R =    90.000 deg
};
P[4407]{
   GP1:
	UF : 1, UT : 4,		CONFIG : 'N U T, 0, 0, 0',
	X =  10.000  mm,	Y =  82.000  mm,	Z =   15.000 mm,
	W =-180.000 deg,	P =   0.000 deg,	R =    90.000 deg
};
P[4408]{
   GP1:
	UF : 1, UT : 4,		CONFIG : 'N U T, 0, 0, 0',
	X =  13.000  mm,	Y =  82.000  mm,	Z =   15.000 mm,
	W =-180.000 deg,	P =   0.000 deg,	R =    90.000 deg
};
P[4409]{
   GP1:
	UF : 1, UT : 4,		CONFIG : 'N U T, 0, 0, 0',
	X =  13.000  mm,	Y =  82.000  mm,	Z =   -1.000 mm,
	W =-180.000 deg,	P =   0.000 deg,	R =    90.000 deg
};
P[4410]{
   GP1:
	UF : 1, UT : 4,		CONFIG : 'N U T, 0, 0, 0',
	X =  13.000  mm,	Y =  82.000  mm,	Z =   15.000 mm,
	W =-180.000 deg,	P =   0.000 deg,	R =    90.000 deg
};
P[4411]{
   GP1:
	UF : 1, UT : 4,		CONFIG : 'N U T, 0, 0, 0',
	X =  16.000  mm,	Y =  82.000  mm,	Z =   15.000 mm,
	W =-180.000 deg,	P =   0.000 deg,	R =    90.000 deg
};
P[4412]{
   GP1:
	UF : 1, UT : 4,		CONFIG : 'N U T, 0, 0, 0',
	X =  16.000  mm,	Y =  82.000  mm,	Z =   -1.000 mm,
	W =-180.000 deg,	P =   0.000 deg,	R =    90.000 deg
};
P[4413]{
   GP1:
	UF : 1, UT : 4,		CONFIG : 'N U T, 0, 0, 0',
	X =  16.000  mm,	Y =  82.000  mm,	Z =   15.000 mm,
	W =-180.000 deg,	P =   0.000 deg,	R =    90.000 deg
};
P[4414]{
   GP1:
	UF : 1, UT : 4,		CONFIG : 'N U T, 0, 0, 0',
	X =  19.000  mm,	Y =  82.000  mm,	Z =   15.000 mm,
	W =-180.000 deg,	P =   0.000 deg,	R =    90.000 deg
};
P[4415]{
   GP1:
	UF : 1, UT : 4,		CONFIG : 'N U T, 0, 0, 0',
	X =  19.000  mm,	Y =  82.000  mm,	Z =   -1.000 mm,
	W =-180.000 deg,	P =   0.000 deg,	R =    90.000 deg
};
P[4416]{
   GP1:
	UF : 1, UT : 4,		CONFIG : 'N U T, 0, 0, 0',
	X =  19.000  mm,	Y =  82.000  mm,	Z =   15.000 mm,
	W =-180.000 deg,	P =   0.000 deg,	R =    90.000 deg
};
P[4417]{
   GP1:
	UF : 1, UT : 4,		CONFIG : 'N U T, 0, 0, 0',
	X =  22.000  mm,	Y =  82.000  mm,	Z =   15.000 mm,
	W =-180.000 deg,	P =   0.000 deg,	R =    90.000 deg
};
P[4418]{
   GP1:
	UF : 1, UT : 4,		CONFIG : 'N U T, 0, 0, 0',
	X =  22.000  mm,	Y =  82.000  mm,	Z =   -1.000 mm,
	W =-180.000 deg,	P =   0.000 deg,	R =    90.000 deg
};
P[4419]{
   GP1:
	UF : 1, UT : 4,		CONFIG : 'N U T, 0, 0, 0',
	X =  22.000  mm,	Y =  82.000  mm,	Z =   15.000 mm,
	W =-180.000 deg,	P =   0.000 deg,	R =    90.000 deg
};
P[4420]{
   GP1:
	UF : 1, UT : 4,		CONFIG : 'N U T, 0, 0, 0',
	X =  25.000  mm,	Y =  82.000  mm,	Z =   15.000 mm,
	W =-180.000 deg,	P =   0.000 deg,	R =    90.000 deg
};
P[4421]{
   GP1:
	UF : 1, UT : 4,		CONFIG : 'N U T, 0, 0, 0',
	X =  25.000  mm,	Y =  82.000  mm,	Z =   -1.000 mm,
	W =-180.000 deg,	P =   0.000 deg,	R =    90.000 deg
};
P[4422]{
   GP1:
	UF : 1, UT : 4,		CONFIG : 'N U T, 0, 0, 0',
	X =  25.000  mm,	Y =  82.000  mm,	Z =   15.000 mm,
	W =-180.000 deg,	P =   0.000 deg,	R =    90.000 deg
};
P[4423]{
   GP1:
	UF : 1, UT : 4,		CONFIG : 'N U T, 0, 0, 0',
	X =  28.000  mm,	Y =  82.000  mm,	Z =   15.000 mm,
	W =-180.000 deg,	P =   0.000 deg,	R =    90.000 deg
};
P[4424]{
   GP1:
	UF : 1, UT : 4,		CONFIG : 'N U T, 0, 0, 0',
	X =  28.000  mm,	Y =  82.000  mm,	Z =   -1.000 mm,
	W =-180.000 deg,	P =   0.000 deg,	R =    90.000 deg
};
P[4425]{
   GP1:
	UF : 1, UT : 4,		CONFIG : 'N U T, 0, 0, 0',
	X =  28.000  mm,	Y =  82.000  mm,	Z =   15.000 mm,
	W =-180.000 deg,	P =   0.000 deg,	R =    90.000 deg
};
P[4426]{
   GP1:
	UF : 1, UT : 4,		CONFIG : 'N U T, 0, 0, 0',
	X =  31.000  mm,	Y =  82.000  mm,	Z =   15.000 mm,
	W =-180.000 deg,	P =   0.000 deg,	R =    90.000 deg
};
P[4427]{
   GP1:
	UF : 1, UT : 4,		CONFIG : 'N U T, 0, 0, 0',
	X =  31.000  mm,	Y =  82.000  mm,	Z =   -1.000 mm,
	W =-180.000 deg,	P =   0.000 deg,	R =    90.000 deg
};
P[4428]{
   GP1:
	UF : 1, UT : 4,		CONFIG : 'N U T, 0, 0, 0',
	X =  31.000  mm,	Y =  82.000  mm,	Z =   15.000 mm,
	W =-180.000 deg,	P =   0.000 deg,	R =    90.000 deg
};
P[4429]{
   GP1:
	UF : 1, UT : 4,		CONFIG : 'N U T, 0, 0, 0',
	X =  34.000  mm,	Y =  82.000  mm,	Z =   15.000 mm,
	W =-180.000 deg,	P =   0.000 deg,	R =    90.000 deg
};
P[4430]{
   GP1:
	UF : 1, UT : 4,		CONFIG : 'N U T, 0, 0, 0',
	X =  34.000  mm,	Y =  82.000  mm,	Z =   -1.000 mm,
	W =-180.000 deg,	P =   0.000 deg,	R =    90.000 deg
};
P[4431]{
   GP1:
	UF : 1, UT : 4,		CONFIG : 'N U T, 0, 0, 0',
	X =  34.000  mm,	Y =  82.000  mm,	Z =   15.000 mm,
	W =-180.000 deg,	P =   0.000 deg,	R =    90.000 deg
};
P[4507]{
   GP1:
	UF : 1, UT : 4,		CONFIG : 'N U T, 0, 0, 0',
	X =  118.000  mm,	Y =  82.000  mm,	Z =   15.000 mm,
	W =-180.000 deg,	P =   0.000 deg,	R =    90.000 deg
};
P[4508]{
   GP1:
	UF : 1, UT : 4,		CONFIG : 'N U T, 0, 0, 0',
	X =  118.000  mm,	Y =  82.000  mm,	Z =   -1.000 mm,
	W =-180.000 deg,	P =   0.000 deg,	R =    90.000 deg
};
P[4509]{
   GP1:
	UF : 1, UT : 4,		CONFIG : 'N U T, 0, 0, 0',
	X =  118.000  mm,	Y =  82.000  mm,	Z =   15.000 mm,
	W =-180.000 deg,	P =   0.000 deg,	R =    90.000 deg
};
P[4552]{
   GP1:
	UF : 1, UT : 4,		CONFIG : 'N U T, 0, 0, 0',
	X =  10.000  mm,	Y =  85.000  mm,	Z =   15.000 mm,
	W =-180.000 deg,	P =   0.000 deg,	R =    90.000 deg
};
P[4553]{
   GP1:
	UF : 1, UT : 4,		CONFIG : 'N U T, 0, 0, 0',
	X =  10.000  mm,	Y =  85.000  mm,	Z =   -1.000 mm,
	W =-180.000 deg,	P =   0.000 deg,	R =    90.000 deg
};
P[4554]{
   GP1:
	UF : 1, UT : 4,		CONFIG : 'N U T, 0, 0, 0',
	X =  10.000  mm,	Y =  85.000  mm,	Z =   15.000 mm,
	W =-180.000 deg,	P =   0.000 deg,	R =    90.000 deg
};
P[4555]{
   GP1:
	UF : 1, UT : 4,		CONFIG : 'N U T, 0, 0, 0',
	X =  13.000  mm,	Y =  85.000  mm,	Z =   15.000 mm,
	W =-180.000 deg,	P =   0.000 deg,	R =    90.000 deg
};
P[4556]{
   GP1:
	UF : 1, UT : 4,		CONFIG : 'N U T, 0, 0, 0',
	X =  13.000  mm,	Y =  85.000  mm,	Z =   -1.000 mm,
	W =-180.000 deg,	P =   0.000 deg,	R =    90.000 deg
};
P[4557]{
   GP1:
	UF : 1, UT : 4,		CONFIG : 'N U T, 0, 0, 0',
	X =  13.000  mm,	Y =  85.000  mm,	Z =   15.000 mm,
	W =-180.000 deg,	P =   0.000 deg,	R =    90.000 deg
};
P[4558]{
   GP1:
	UF : 1, UT : 4,		CONFIG : 'N U T, 0, 0, 0',
	X =  16.000  mm,	Y =  85.000  mm,	Z =   15.000 mm,
	W =-180.000 deg,	P =   0.000 deg,	R =    90.000 deg
};
P[4559]{
   GP1:
	UF : 1, UT : 4,		CONFIG : 'N U T, 0, 0, 0',
	X =  16.000  mm,	Y =  85.000  mm,	Z =   -1.000 mm,
	W =-180.000 deg,	P =   0.000 deg,	R =    90.000 deg
};
P[4560]{
   GP1:
	UF : 1, UT : 4,		CONFIG : 'N U T, 0, 0, 0',
	X =  16.000  mm,	Y =  85.000  mm,	Z =   15.000 mm,
	W =-180.000 deg,	P =   0.000 deg,	R =    90.000 deg
};
P[4561]{
   GP1:
	UF : 1, UT : 4,		CONFIG : 'N U T, 0, 0, 0',
	X =  19.000  mm,	Y =  85.000  mm,	Z =   15.000 mm,
	W =-180.000 deg,	P =   0.000 deg,	R =    90.000 deg
};
P[4562]{
   GP1:
	UF : 1, UT : 4,		CONFIG : 'N U T, 0, 0, 0',
	X =  19.000  mm,	Y =  85.000  mm,	Z =   -1.000 mm,
	W =-180.000 deg,	P =   0.000 deg,	R =    90.000 deg
};
P[4563]{
   GP1:
	UF : 1, UT : 4,		CONFIG : 'N U T, 0, 0, 0',
	X =  19.000  mm,	Y =  85.000  mm,	Z =   15.000 mm,
	W =-180.000 deg,	P =   0.000 deg,	R =    90.000 deg
};
P[4564]{
   GP1:
	UF : 1, UT : 4,		CONFIG : 'N U T, 0, 0, 0',
	X =  22.000  mm,	Y =  85.000  mm,	Z =   15.000 mm,
	W =-180.000 deg,	P =   0.000 deg,	R =    90.000 deg
};
P[4565]{
   GP1:
	UF : 1, UT : 4,		CONFIG : 'N U T, 0, 0, 0',
	X =  22.000  mm,	Y =  85.000  mm,	Z =   -1.000 mm,
	W =-180.000 deg,	P =   0.000 deg,	R =    90.000 deg
};
P[4566]{
   GP1:
	UF : 1, UT : 4,		CONFIG : 'N U T, 0, 0, 0',
	X =  22.000  mm,	Y =  85.000  mm,	Z =   15.000 mm,
	W =-180.000 deg,	P =   0.000 deg,	R =    90.000 deg
};
P[4567]{
   GP1:
	UF : 1, UT : 4,		CONFIG : 'N U T, 0, 0, 0',
	X =  25.000  mm,	Y =  85.000  mm,	Z =   15.000 mm,
	W =-180.000 deg,	P =   0.000 deg,	R =    90.000 deg
};
P[4568]{
   GP1:
	UF : 1, UT : 4,		CONFIG : 'N U T, 0, 0, 0',
	X =  25.000  mm,	Y =  85.000  mm,	Z =   -1.000 mm,
	W =-180.000 deg,	P =   0.000 deg,	R =    90.000 deg
};
P[4569]{
   GP1:
	UF : 1, UT : 4,		CONFIG : 'N U T, 0, 0, 0',
	X =  25.000  mm,	Y =  85.000  mm,	Z =   15.000 mm,
	W =-180.000 deg,	P =   0.000 deg,	R =    90.000 deg
};
P[4570]{
   GP1:
	UF : 1, UT : 4,		CONFIG : 'N U T, 0, 0, 0',
	X =  28.000  mm,	Y =  85.000  mm,	Z =   15.000 mm,
	W =-180.000 deg,	P =   0.000 deg,	R =    90.000 deg
};
P[4571]{
   GP1:
	UF : 1, UT : 4,		CONFIG : 'N U T, 0, 0, 0',
	X =  28.000  mm,	Y =  85.000  mm,	Z =   -1.000 mm,
	W =-180.000 deg,	P =   0.000 deg,	R =    90.000 deg
};
P[4572]{
   GP1:
	UF : 1, UT : 4,		CONFIG : 'N U T, 0, 0, 0',
	X =  28.000  mm,	Y =  85.000  mm,	Z =   15.000 mm,
	W =-180.000 deg,	P =   0.000 deg,	R =    90.000 deg
};
P[4573]{
   GP1:
	UF : 1, UT : 4,		CONFIG : 'N U T, 0, 0, 0',
	X =  31.000  mm,	Y =  85.000  mm,	Z =   15.000 mm,
	W =-180.000 deg,	P =   0.000 deg,	R =    90.000 deg
};
P[4574]{
   GP1:
	UF : 1, UT : 4,		CONFIG : 'N U T, 0, 0, 0',
	X =  31.000  mm,	Y =  85.000  mm,	Z =   -1.000 mm,
	W =-180.000 deg,	P =   0.000 deg,	R =    90.000 deg
};
P[4575]{
   GP1:
	UF : 1, UT : 4,		CONFIG : 'N U T, 0, 0, 0',
	X =  31.000  mm,	Y =  85.000  mm,	Z =   15.000 mm,
	W =-180.000 deg,	P =   0.000 deg,	R =    90.000 deg
};
P[4576]{
   GP1:
	UF : 1, UT : 4,		CONFIG : 'N U T, 0, 0, 0',
	X =  34.000  mm,	Y =  85.000  mm,	Z =   15.000 mm,
	W =-180.000 deg,	P =   0.000 deg,	R =    90.000 deg
};
P[4577]{
   GP1:
	UF : 1, UT : 4,		CONFIG : 'N U T, 0, 0, 0',
	X =  34.000  mm,	Y =  85.000  mm,	Z =   -1.000 mm,
	W =-180.000 deg,	P =   0.000 deg,	R =    90.000 deg
};
P[4578]{
   GP1:
	UF : 1, UT : 4,		CONFIG : 'N U T, 0, 0, 0',
	X =  34.000  mm,	Y =  85.000  mm,	Z =   15.000 mm,
	W =-180.000 deg,	P =   0.000 deg,	R =    90.000 deg
};
P[4579]{
   GP1:
	UF : 1, UT : 4,		CONFIG : 'N U T, 0, 0, 0',
	X =  37.000  mm,	Y =  85.000  mm,	Z =   15.000 mm,
	W =-180.000 deg,	P =   0.000 deg,	R =    90.000 deg
};
P[4580]{
   GP1:
	UF : 1, UT : 4,		CONFIG : 'N U T, 0, 0, 0',
	X =  37.000  mm,	Y =  85.000  mm,	Z =   -1.000 mm,
	W =-180.000 deg,	P =   0.000 deg,	R =    90.000 deg
};
P[4581]{
   GP1:
	UF : 1, UT : 4,		CONFIG : 'N U T, 0, 0, 0',
	X =  37.000  mm,	Y =  85.000  mm,	Z =   15.000 mm,
	W =-180.000 deg,	P =   0.000 deg,	R =    90.000 deg
};
P[4582]{
   GP1:
	UF : 1, UT : 4,		CONFIG : 'N U T, 0, 0, 0',
	X =  40.000  mm,	Y =  85.000  mm,	Z =   15.000 mm,
	W =-180.000 deg,	P =   0.000 deg,	R =    90.000 deg
};
P[4583]{
   GP1:
	UF : 1, UT : 4,		CONFIG : 'N U T, 0, 0, 0',
	X =  40.000  mm,	Y =  85.000  mm,	Z =   -1.000 mm,
	W =-180.000 deg,	P =   0.000 deg,	R =    90.000 deg
};
P[4584]{
   GP1:
	UF : 1, UT : 4,		CONFIG : 'N U T, 0, 0, 0',
	X =  40.000  mm,	Y =  85.000  mm,	Z =   15.000 mm,
	W =-180.000 deg,	P =   0.000 deg,	R =    90.000 deg
};
P[4654]{
   GP1:
	UF : 1, UT : 4,		CONFIG : 'N U T, 0, 0, 0',
	X =  118.000  mm,	Y =  85.000  mm,	Z =   15.000 mm,
	W =-180.000 deg,	P =   0.000 deg,	R =    90.000 deg
};
P[4655]{
   GP1:
	UF : 1, UT : 4,		CONFIG : 'N U T, 0, 0, 0',
	X =  118.000  mm,	Y =  85.000  mm,	Z =   -1.000 mm,
	W =-180.000 deg,	P =   0.000 deg,	R =    90.000 deg
};
P[4656]{
   GP1:
	UF : 1, UT : 4,		CONFIG : 'N U T, 0, 0, 0',
	X =  118.000  mm,	Y =  85.000  mm,	Z =   15.000 mm,
	W =-180.000 deg,	P =   0.000 deg,	R =    90.000 deg
};
P[4678]{
   GP1:
	UF : 1, UT : 4,		CONFIG : 'N U T, 0, 0, 0',
	X =  148.000  mm,	Y =  85.000  mm,	Z =   15.000 mm,
	W =-180.000 deg,	P =   0.000 deg,	R =    90.000 deg
};
P[4679]{
   GP1:
	UF : 1, UT : 4,		CONFIG : 'N U T, 0, 0, 0',
	X =  148.000  mm,	Y =  85.000  mm,	Z =   -1.000 mm,
	W =-180.000 deg,	P =   0.000 deg,	R =    90.000 deg
};
P[4680]{
   GP1:
	UF : 1, UT : 4,		CONFIG : 'N U T, 0, 0, 0',
	X =  148.000  mm,	Y =  85.000  mm,	Z =   15.000 mm,
	W =-180.000 deg,	P =   0.000 deg,	R =    90.000 deg
};
P[4681]{
   GP1:
	UF : 1, UT : 4,		CONFIG : 'N U T, 0, 0, 0',
	X =  163.000  mm,	Y =  85.000  mm,	Z =   15.000 mm,
	W =-180.000 deg,	P =   0.000 deg,	R =    90.000 deg
};
P[4682]{
   GP1:
	UF : 1, UT : 4,		CONFIG : 'N U T, 0, 0, 0',
	X =  163.000  mm,	Y =  85.000  mm,	Z =   -1.000 mm,
	W =-180.000 deg,	P =   0.000 deg,	R =    90.000 deg
};
P[4683]{
   GP1:
	UF : 1, UT : 4,		CONFIG : 'N U T, 0, 0, 0',
	X =  163.000  mm,	Y =  85.000  mm,	Z =   15.000 mm,
	W =-180.000 deg,	P =   0.000 deg,	R =    90.000 deg
};
P[4705]{
   GP1:
	UF : 1, UT : 4,		CONFIG : 'N U T, 0, 0, 0',
	X =  10.000  mm,	Y =  88.000  mm,	Z =   15.000 mm,
	W =-180.000 deg,	P =   0.000 deg,	R =    90.000 deg
};
P[4706]{
   GP1:
	UF : 1, UT : 4,		CONFIG : 'N U T, 0, 0, 0',
	X =  10.000  mm,	Y =  88.000  mm,	Z =   -1.000 mm,
	W =-180.000 deg,	P =   0.000 deg,	R =    90.000 deg
};
P[4707]{
   GP1:
	UF : 1, UT : 4,		CONFIG : 'N U T, 0, 0, 0',
	X =  10.000  mm,	Y =  88.000  mm,	Z =   15.000 mm,
	W =-180.000 deg,	P =   0.000 deg,	R =    90.000 deg
};
P[4708]{
   GP1:
	UF : 1, UT : 4,		CONFIG : 'N U T, 0, 0, 0',
	X =  13.000  mm,	Y =  88.000  mm,	Z =   15.000 mm,
	W =-180.000 deg,	P =   0.000 deg,	R =    90.000 deg
};
P[4709]{
   GP1:
	UF : 1, UT : 4,		CONFIG : 'N U T, 0, 0, 0',
	X =  13.000  mm,	Y =  88.000  mm,	Z =   -1.000 mm,
	W =-180.000 deg,	P =   0.000 deg,	R =    90.000 deg
};
P[4710]{
   GP1:
	UF : 1, UT : 4,		CONFIG : 'N U T, 0, 0, 0',
	X =  13.000  mm,	Y =  88.000  mm,	Z =   15.000 mm,
	W =-180.000 deg,	P =   0.000 deg,	R =    90.000 deg
};
P[4711]{
   GP1:
	UF : 1, UT : 4,		CONFIG : 'N U T, 0, 0, 0',
	X =  16.000  mm,	Y =  88.000  mm,	Z =   15.000 mm,
	W =-180.000 deg,	P =   0.000 deg,	R =    90.000 deg
};
P[4712]{
   GP1:
	UF : 1, UT : 4,		CONFIG : 'N U T, 0, 0, 0',
	X =  16.000  mm,	Y =  88.000  mm,	Z =   -1.000 mm,
	W =-180.000 deg,	P =   0.000 deg,	R =    90.000 deg
};
P[4713]{
   GP1:
	UF : 1, UT : 4,		CONFIG : 'N U T, 0, 0, 0',
	X =  16.000  mm,	Y =  88.000  mm,	Z =   15.000 mm,
	W =-180.000 deg,	P =   0.000 deg,	R =    90.000 deg
};
P[4714]{
   GP1:
	UF : 1, UT : 4,		CONFIG : 'N U T, 0, 0, 0',
	X =  19.000  mm,	Y =  88.000  mm,	Z =   15.000 mm,
	W =-180.000 deg,	P =   0.000 deg,	R =    90.000 deg
};
P[4715]{
   GP1:
	UF : 1, UT : 4,		CONFIG : 'N U T, 0, 0, 0',
	X =  19.000  mm,	Y =  88.000  mm,	Z =   -1.000 mm,
	W =-180.000 deg,	P =   0.000 deg,	R =    90.000 deg
};
P[4716]{
   GP1:
	UF : 1, UT : 4,		CONFIG : 'N U T, 0, 0, 0',
	X =  19.000  mm,	Y =  88.000  mm,	Z =   15.000 mm,
	W =-180.000 deg,	P =   0.000 deg,	R =    90.000 deg
};
P[4720]{
   GP1:
	UF : 1, UT : 4,		CONFIG : 'N U T, 0, 0, 0',
	X =  25.000  mm,	Y =  88.000  mm,	Z =   15.000 mm,
	W =-180.000 deg,	P =   0.000 deg,	R =    90.000 deg
};
P[4721]{
   GP1:
	UF : 1, UT : 4,		CONFIG : 'N U T, 0, 0, 0',
	X =  25.000  mm,	Y =  88.000  mm,	Z =   -1.000 mm,
	W =-180.000 deg,	P =   0.000 deg,	R =    90.000 deg
};
P[4722]{
   GP1:
	UF : 1, UT : 4,		CONFIG : 'N U T, 0, 0, 0',
	X =  25.000  mm,	Y =  88.000  mm,	Z =   15.000 mm,
	W =-180.000 deg,	P =   0.000 deg,	R =    90.000 deg
};
P[4723]{
   GP1:
	UF : 1, UT : 4,		CONFIG : 'N U T, 0, 0, 0',
	X =  28.000  mm,	Y =  88.000  mm,	Z =   15.000 mm,
	W =-180.000 deg,	P =   0.000 deg,	R =    90.000 deg
};
P[4724]{
   GP1:
	UF : 1, UT : 4,		CONFIG : 'N U T, 0, 0, 0',
	X =  28.000  mm,	Y =  88.000  mm,	Z =   -1.000 mm,
	W =-180.000 deg,	P =   0.000 deg,	R =    90.000 deg
};
P[4725]{
   GP1:
	UF : 1, UT : 4,		CONFIG : 'N U T, 0, 0, 0',
	X =  28.000  mm,	Y =  88.000  mm,	Z =   15.000 mm,
	W =-180.000 deg,	P =   0.000 deg,	R =    90.000 deg
};
P[4726]{
   GP1:
	UF : 1, UT : 4,		CONFIG : 'N U T, 0, 0, 0',
	X =  31.000  mm,	Y =  88.000  mm,	Z =   15.000 mm,
	W =-180.000 deg,	P =   0.000 deg,	R =    90.000 deg
};
P[4727]{
   GP1:
	UF : 1, UT : 4,		CONFIG : 'N U T, 0, 0, 0',
	X =  31.000  mm,	Y =  88.000  mm,	Z =   -1.000 mm,
	W =-180.000 deg,	P =   0.000 deg,	R =    90.000 deg
};
P[4728]{
   GP1:
	UF : 1, UT : 4,		CONFIG : 'N U T, 0, 0, 0',
	X =  31.000  mm,	Y =  88.000  mm,	Z =   15.000 mm,
	W =-180.000 deg,	P =   0.000 deg,	R =    90.000 deg
};
P[4738]{
   GP1:
	UF : 1, UT : 4,		CONFIG : 'N U T, 0, 0, 0',
	X =  43.000  mm,	Y =  88.000  mm,	Z =   15.000 mm,
	W =-180.000 deg,	P =   0.000 deg,	R =    90.000 deg
};
P[4739]{
   GP1:
	UF : 1, UT : 4,		CONFIG : 'N U T, 0, 0, 0',
	X =  43.000  mm,	Y =  88.000  mm,	Z =   -1.000 mm,
	W =-180.000 deg,	P =   0.000 deg,	R =    90.000 deg
};
P[4740]{
   GP1:
	UF : 1, UT : 4,		CONFIG : 'N U T, 0, 0, 0',
	X =  43.000  mm,	Y =  88.000  mm,	Z =   15.000 mm,
	W =-180.000 deg,	P =   0.000 deg,	R =    90.000 deg
};
P[4810]{
   GP1:
	UF : 1, UT : 4,		CONFIG : 'N U T, 0, 0, 0',
	X =  124.000  mm,	Y =  88.000  mm,	Z =   15.000 mm,
	W =-180.000 deg,	P =   0.000 deg,	R =    90.000 deg
};
P[4811]{
   GP1:
	UF : 1, UT : 4,		CONFIG : 'N U T, 0, 0, 0',
	X =  124.000  mm,	Y =  88.000  mm,	Z =   -1.000 mm,
	W =-180.000 deg,	P =   0.000 deg,	R =    90.000 deg
};
P[4812]{
   GP1:
	UF : 1, UT : 4,		CONFIG : 'N U T, 0, 0, 0',
	X =  124.000  mm,	Y =  88.000  mm,	Z =   15.000 mm,
	W =-180.000 deg,	P =   0.000 deg,	R =    90.000 deg
};
P[4825]{
   GP1:
	UF : 1, UT : 4,		CONFIG : 'N U T, 0, 0, 0',
	X =  151.000  mm,	Y =  88.000  mm,	Z =   15.000 mm,
	W =-180.000 deg,	P =   0.000 deg,	R =    90.000 deg
};
P[4826]{
   GP1:
	UF : 1, UT : 4,		CONFIG : 'N U T, 0, 0, 0',
	X =  151.000  mm,	Y =  88.000  mm,	Z =   -1.000 mm,
	W =-180.000 deg,	P =   0.000 deg,	R =    90.000 deg
};
P[4827]{
   GP1:
	UF : 1, UT : 4,		CONFIG : 'N U T, 0, 0, 0',
	X =  151.000  mm,	Y =  88.000  mm,	Z =   15.000 mm,
	W =-180.000 deg,	P =   0.000 deg,	R =    90.000 deg
};
P[4849]{
   GP1:
	UF : 1, UT : 4,		CONFIG : 'N U T, 0, 0, 0',
	X =  10.000  mm,	Y =  91.000  mm,	Z =   15.000 mm,
	W =-180.000 deg,	P =   0.000 deg,	R =    90.000 deg
};
P[4850]{
   GP1:
	UF : 1, UT : 4,		CONFIG : 'N U T, 0, 0, 0',
	X =  10.000  mm,	Y =  91.000  mm,	Z =   -1.000 mm,
	W =-180.000 deg,	P =   0.000 deg,	R =    90.000 deg
};
P[4851]{
   GP1:
	UF : 1, UT : 4,		CONFIG : 'N U T, 0, 0, 0',
	X =  10.000  mm,	Y =  91.000  mm,	Z =   15.000 mm,
	W =-180.000 deg,	P =   0.000 deg,	R =    90.000 deg
};
P[4852]{
   GP1:
	UF : 1, UT : 4,		CONFIG : 'N U T, 0, 0, 0',
	X =  13.000  mm,	Y =  91.000  mm,	Z =   15.000 mm,
	W =-180.000 deg,	P =   0.000 deg,	R =    90.000 deg
};
P[4853]{
   GP1:
	UF : 1, UT : 4,		CONFIG : 'N U T, 0, 0, 0',
	X =  13.000  mm,	Y =  91.000  mm,	Z =   -1.000 mm,
	W =-180.000 deg,	P =   0.000 deg,	R =    90.000 deg
};
P[4854]{
   GP1:
	UF : 1, UT : 4,		CONFIG : 'N U T, 0, 0, 0',
	X =  13.000  mm,	Y =  91.000  mm,	Z =   15.000 mm,
	W =-180.000 deg,	P =   0.000 deg,	R =    90.000 deg
};
P[4867]{
   GP1:
	UF : 1, UT : 4,		CONFIG : 'N U T, 0, 0, 0',
	X =  28.000  mm,	Y =  91.000  mm,	Z =   15.000 mm,
	W =-180.000 deg,	P =   0.000 deg,	R =    90.000 deg
};
P[4868]{
   GP1:
	UF : 1, UT : 4,		CONFIG : 'N U T, 0, 0, 0',
	X =  28.000  mm,	Y =  91.000  mm,	Z =   -1.000 mm,
	W =-180.000 deg,	P =   0.000 deg,	R =    90.000 deg
};
P[4869]{
   GP1:
	UF : 1, UT : 4,		CONFIG : 'N U T, 0, 0, 0',
	X =  28.000  mm,	Y =  91.000  mm,	Z =   15.000 mm,
	W =-180.000 deg,	P =   0.000 deg,	R =    90.000 deg
};
P[4969]{
   GP1:
	UF : 1, UT : 4,		CONFIG : 'N U T, 0, 0, 0',
	X =  145.000  mm,	Y =  91.000  mm,	Z =   15.000 mm,
	W =-180.000 deg,	P =   0.000 deg,	R =    90.000 deg
};
P[4970]{
   GP1:
	UF : 1, UT : 4,		CONFIG : 'N U T, 0, 0, 0',
	X =  145.000  mm,	Y =  91.000  mm,	Z =   -1.000 mm,
	W =-180.000 deg,	P =   0.000 deg,	R =    90.000 deg
};
P[4971]{
   GP1:
	UF : 1, UT : 4,		CONFIG : 'N U T, 0, 0, 0',
	X =  145.000  mm,	Y =  91.000  mm,	Z =   15.000 mm,
	W =-180.000 deg,	P =   0.000 deg,	R =    90.000 deg
};
P[4972]{
   GP1:
	UF : 1, UT : 4,		CONFIG : 'N U T, 0, 0, 0',
	X =  163.000  mm,	Y =  91.000  mm,	Z =   15.000 mm,
	W =-180.000 deg,	P =   0.000 deg,	R =    90.000 deg
};
P[4973]{
   GP1:
	UF : 1, UT : 4,		CONFIG : 'N U T, 0, 0, 0',
	X =  163.000  mm,	Y =  91.000  mm,	Z =   -1.000 mm,
	W =-180.000 deg,	P =   0.000 deg,	R =    90.000 deg
};
P[4974]{
   GP1:
	UF : 1, UT : 4,		CONFIG : 'N U T, 0, 0, 0',
	X =  163.000  mm,	Y =  91.000  mm,	Z =   15.000 mm,
	W =-180.000 deg,	P =   0.000 deg,	R =    90.000 deg
};
P[4999]{
   GP1:
	UF : 1, UT : 4,		CONFIG : 'N U T, 0, 0, 0',
	X =  13.000  mm,	Y =  94.000  mm,	Z =   15.000 mm,
	W =-180.000 deg,	P =   0.000 deg,	R =    90.000 deg
};
P[5000]{
   GP1:
	UF : 1, UT : 4,		CONFIG : 'N U T, 0, 0, 0',
	X =  13.000  mm,	Y =  94.000  mm,	Z =   -1.000 mm,
	W =-180.000 deg,	P =   0.000 deg,	R =    90.000 deg
};
P[5001]{
   GP1:
	UF : 1, UT : 4,		CONFIG : 'N U T, 0, 0, 0',
	X =  13.000  mm,	Y =  94.000  mm,	Z =   15.000 mm,
	W =-180.000 deg,	P =   0.000 deg,	R =    90.000 deg
};
P[5008]{
   GP1:
	UF : 1, UT : 4,		CONFIG : 'N U T, 0, 0, 0',
	X =  22.000  mm,	Y =  94.000  mm,	Z =   15.000 mm,
	W =-180.000 deg,	P =   0.000 deg,	R =    90.000 deg
};
P[5009]{
   GP1:
	UF : 1, UT : 4,		CONFIG : 'N U T, 0, 0, 0',
	X =  22.000  mm,	Y =  94.000  mm,	Z =   -1.000 mm,
	W =-180.000 deg,	P =   0.000 deg,	R =    90.000 deg
};
P[5010]{
   GP1:
	UF : 1, UT : 4,		CONFIG : 'N U T, 0, 0, 0',
	X =  22.000  mm,	Y =  94.000  mm,	Z =   15.000 mm,
	W =-180.000 deg,	P =   0.000 deg,	R =    90.000 deg
};
P[5092]{
   GP1:
	UF : 1, UT : 4,		CONFIG : 'N U T, 0, 0, 0',
	X =  121.000  mm,	Y =  94.000  mm,	Z =   15.000 mm,
	W =-180.000 deg,	P =   0.000 deg,	R =    90.000 deg
};
P[5093]{
   GP1:
	UF : 1, UT : 4,		CONFIG : 'N U T, 0, 0, 0',
	X =  121.000  mm,	Y =  94.000  mm,	Z =   -1.000 mm,
	W =-180.000 deg,	P =   0.000 deg,	R =    90.000 deg
};
P[5094]{
   GP1:
	UF : 1, UT : 4,		CONFIG : 'N U T, 0, 0, 0',
	X =  121.000  mm,	Y =  94.000  mm,	Z =   15.000 mm,
	W =-180.000 deg,	P =   0.000 deg,	R =    90.000 deg
};
P[5107]{
   GP1:
	UF : 1, UT : 4,		CONFIG : 'N U T, 0, 0, 0',
	X =  145.000  mm,	Y =  94.000  mm,	Z =   15.000 mm,
	W =-180.000 deg,	P =   0.000 deg,	R =    90.000 deg
};
P[5108]{
   GP1:
	UF : 1, UT : 4,		CONFIG : 'N U T, 0, 0, 0',
	X =  145.000  mm,	Y =  94.000  mm,	Z =   -1.000 mm,
	W =-180.000 deg,	P =   0.000 deg,	R =    90.000 deg
};
P[5109]{
   GP1:
	UF : 1, UT : 4,		CONFIG : 'N U T, 0, 0, 0',
	X =  145.000  mm,	Y =  94.000  mm,	Z =   15.000 mm,
	W =-180.000 deg,	P =   0.000 deg,	R =    90.000 deg
};
P[5140]{
   GP1:
	UF : 1, UT : 4,		CONFIG : 'N U T, 0, 0, 0',
	X =  13.000  mm,	Y =  97.000  mm,	Z =   15.000 mm,
	W =-180.000 deg,	P =   0.000 deg,	R =    90.000 deg
};
P[5141]{
   GP1:
	UF : 1, UT : 4,		CONFIG : 'N U T, 0, 0, 0',
	X =  13.000  mm,	Y =  97.000  mm,	Z =   -1.000 mm,
	W =-180.000 deg,	P =   0.000 deg,	R =    90.000 deg
};
P[5142]{
   GP1:
	UF : 1, UT : 4,		CONFIG : 'N U T, 0, 0, 0',
	X =  13.000  mm,	Y =  97.000  mm,	Z =   15.000 mm,
	W =-180.000 deg,	P =   0.000 deg,	R =    90.000 deg
};
P[5146]{
   GP1:
	UF : 1, UT : 4,		CONFIG : 'N U T, 0, 0, 0',
	X =  19.000  mm,	Y =  97.000  mm,	Z =   15.000 mm,
	W =-180.000 deg,	P =   0.000 deg,	R =    90.000 deg
};
P[5147]{
   GP1:
	UF : 1, UT : 4,		CONFIG : 'N U T, 0, 0, 0',
	X =  19.000  mm,	Y =  97.000  mm,	Z =   -1.000 mm,
	W =-180.000 deg,	P =   0.000 deg,	R =    90.000 deg
};
P[5148]{
   GP1:
	UF : 1, UT : 4,		CONFIG : 'N U T, 0, 0, 0',
	X =  19.000  mm,	Y =  97.000  mm,	Z =   15.000 mm,
	W =-180.000 deg,	P =   0.000 deg,	R =    90.000 deg
};
P[5269]{
   GP1:
	UF : 1, UT : 4,		CONFIG : 'N U T, 0, 0, 0',
	X =  142.000  mm,	Y =  97.000  mm,	Z =   15.000 mm,
	W =-180.000 deg,	P =   0.000 deg,	R =    90.000 deg
};
P[5270]{
   GP1:
	UF : 1, UT : 4,		CONFIG : 'N U T, 0, 0, 0',
	X =  142.000  mm,	Y =  97.000  mm,	Z =   -1.000 mm,
	W =-180.000 deg,	P =   0.000 deg,	R =    90.000 deg
};
P[5271]{
   GP1:
	UF : 1, UT : 4,		CONFIG : 'N U T, 0, 0, 0',
	X =  142.000  mm,	Y =  97.000  mm,	Z =   15.000 mm,
	W =-180.000 deg,	P =   0.000 deg,	R =    90.000 deg
};
P[5272]{
   GP1:
	UF : 1, UT : 4,		CONFIG : 'N U T, 0, 0, 0',
	X =  145.000  mm,	Y =  97.000  mm,	Z =   15.000 mm,
	W =-180.000 deg,	P =   0.000 deg,	R =    90.000 deg
};
P[5273]{
   GP1:
	UF : 1, UT : 4,		CONFIG : 'N U T, 0, 0, 0',
	X =  145.000  mm,	Y =  97.000  mm,	Z =   -1.000 mm,
	W =-180.000 deg,	P =   0.000 deg,	R =    90.000 deg
};
P[5274]{
   GP1:
	UF : 1, UT : 4,		CONFIG : 'N U T, 0, 0, 0',
	X =  145.000  mm,	Y =  97.000  mm,	Z =   15.000 mm,
	W =-180.000 deg,	P =   0.000 deg,	R =    90.000 deg
};
P[5275]{
   GP1:
	UF : 1, UT : 4,		CONFIG : 'N U T, 0, 0, 0',
	X =  148.000  mm,	Y =  97.000  mm,	Z =   15.000 mm,
	W =-180.000 deg,	P =   0.000 deg,	R =    90.000 deg
};
P[5276]{
   GP1:
	UF : 1, UT : 4,		CONFIG : 'N U T, 0, 0, 0',
	X =  148.000  mm,	Y =  97.000  mm,	Z =   -1.000 mm,
	W =-180.000 deg,	P =   0.000 deg,	R =    90.000 deg
};
P[5277]{
   GP1:
	UF : 1, UT : 4,		CONFIG : 'N U T, 0, 0, 0',
	X =  148.000  mm,	Y =  97.000  mm,	Z =   15.000 mm,
	W =-180.000 deg,	P =   0.000 deg,	R =    90.000 deg
};
P[5311]{
   GP1:
	UF : 1, UT : 4,		CONFIG : 'N U T, 0, 0, 0',
	X =  16.000  mm,	Y =  100.000  mm,	Z =   15.000 mm,
	W =-180.000 deg,	P =   0.000 deg,	R =    90.000 deg
};
P[5312]{
   GP1:
	UF : 1, UT : 4,		CONFIG : 'N U T, 0, 0, 0',
	X =  16.000  mm,	Y =  100.000  mm,	Z =   -1.000 mm,
	W =-180.000 deg,	P =   0.000 deg,	R =    90.000 deg
};
P[5313]{
   GP1:
	UF : 1, UT : 4,		CONFIG : 'N U T, 0, 0, 0',
	X =  16.000  mm,	Y =  100.000  mm,	Z =   15.000 mm,
	W =-180.000 deg,	P =   0.000 deg,	R =    90.000 deg
};
P[5314]{
   GP1:
	UF : 1, UT : 4,		CONFIG : 'N U T, 0, 0, 0',
	X =  19.000  mm,	Y =  100.000  mm,	Z =   15.000 mm,
	W =-180.000 deg,	P =   0.000 deg,	R =    90.000 deg
};
P[5315]{
   GP1:
	UF : 1, UT : 4,		CONFIG : 'N U T, 0, 0, 0',
	X =  19.000  mm,	Y =  100.000  mm,	Z =   -1.000 mm,
	W =-180.000 deg,	P =   0.000 deg,	R =    90.000 deg
};
P[5316]{
   GP1:
	UF : 1, UT : 4,		CONFIG : 'N U T, 0, 0, 0',
	X =  19.000  mm,	Y =  100.000  mm,	Z =   15.000 mm,
	W =-180.000 deg,	P =   0.000 deg,	R =    90.000 deg
};
P[5317]{
   GP1:
	UF : 1, UT : 4,		CONFIG : 'N U T, 0, 0, 0',
	X =  22.000  mm,	Y =  100.000  mm,	Z =   15.000 mm,
	W =-180.000 deg,	P =   0.000 deg,	R =    90.000 deg
};
P[5318]{
   GP1:
	UF : 1, UT : 4,		CONFIG : 'N U T, 0, 0, 0',
	X =  22.000  mm,	Y =  100.000  mm,	Z =   -1.000 mm,
	W =-180.000 deg,	P =   0.000 deg,	R =    90.000 deg
};
P[5319]{
   GP1:
	UF : 1, UT : 4,		CONFIG : 'N U T, 0, 0, 0',
	X =  22.000  mm,	Y =  100.000  mm,	Z =   15.000 mm,
	W =-180.000 deg,	P =   0.000 deg,	R =    90.000 deg
};
P[5479]{
   GP1:
	UF : 1, UT : 4,		CONFIG : 'N U T, 0, 0, 0',
	X =  16.000  mm,	Y =  103.000  mm,	Z =   15.000 mm,
	W =-180.000 deg,	P =   0.000 deg,	R =    90.000 deg
};
P[5480]{
   GP1:
	UF : 1, UT : 4,		CONFIG : 'N U T, 0, 0, 0',
	X =  16.000  mm,	Y =  103.000  mm,	Z =   -1.000 mm,
	W =-180.000 deg,	P =   0.000 deg,	R =    90.000 deg
};
P[5481]{
   GP1:
	UF : 1, UT : 4,		CONFIG : 'N U T, 0, 0, 0',
	X =  16.000  mm,	Y =  103.000  mm,	Z =   15.000 mm,
	W =-180.000 deg,	P =   0.000 deg,	R =    90.000 deg
};
P[5482]{
   GP1:
	UF : 1, UT : 4,		CONFIG : 'N U T, 0, 0, 0',
	X =  19.000  mm,	Y =  103.000  mm,	Z =   15.000 mm,
	W =-180.000 deg,	P =   0.000 deg,	R =    90.000 deg
};
P[5483]{
   GP1:
	UF : 1, UT : 4,		CONFIG : 'N U T, 0, 0, 0',
	X =  19.000  mm,	Y =  103.000  mm,	Z =   -1.000 mm,
	W =-180.000 deg,	P =   0.000 deg,	R =    90.000 deg
};
P[5484]{
   GP1:
	UF : 1, UT : 4,		CONFIG : 'N U T, 0, 0, 0',
	X =  19.000  mm,	Y =  103.000  mm,	Z =   15.000 mm,
	W =-180.000 deg,	P =   0.000 deg,	R =    90.000 deg
};
P[5491]{
   GP1:
	UF : 1, UT : 4,		CONFIG : 'N U T, 0, 0, 0',
	X =  28.000  mm,	Y =  103.000  mm,	Z =   15.000 mm,
	W =-180.000 deg,	P =   0.000 deg,	R =    90.000 deg
};
P[5492]{
   GP1:
	UF : 1, UT : 4,		CONFIG : 'N U T, 0, 0, 0',
	X =  28.000  mm,	Y =  103.000  mm,	Z =   -1.000 mm,
	W =-180.000 deg,	P =   0.000 deg,	R =    90.000 deg
};
P[5493]{
   GP1:
	UF : 1, UT : 4,		CONFIG : 'N U T, 0, 0, 0',
	X =  28.000  mm,	Y =  103.000  mm,	Z =   15.000 mm,
	W =-180.000 deg,	P =   0.000 deg,	R =    90.000 deg
};
P[5494]{
   GP1:
	UF : 1, UT : 4,		CONFIG : 'N U T, 0, 0, 0',
	X =  31.000  mm,	Y =  103.000  mm,	Z =   15.000 mm,
	W =-180.000 deg,	P =   0.000 deg,	R =    90.000 deg
};
P[5495]{
   GP1:
	UF : 1, UT : 4,		CONFIG : 'N U T, 0, 0, 0',
	X =  31.000  mm,	Y =  103.000  mm,	Z =   -1.000 mm,
	W =-180.000 deg,	P =   0.000 deg,	R =    90.000 deg
};
P[5496]{
   GP1:
	UF : 1, UT : 4,		CONFIG : 'N U T, 0, 0, 0',
	X =  31.000  mm,	Y =  103.000  mm,	Z =   15.000 mm,
	W =-180.000 deg,	P =   0.000 deg,	R =    90.000 deg
};
P[5497]{
   GP1:
	UF : 1, UT : 4,		CONFIG : 'N U T, 0, 0, 0',
	X =  34.000  mm,	Y =  103.000  mm,	Z =   15.000 mm,
	W =-180.000 deg,	P =   0.000 deg,	R =    90.000 deg
};
P[5498]{
   GP1:
	UF : 1, UT : 4,		CONFIG : 'N U T, 0, 0, 0',
	X =  34.000  mm,	Y =  103.000  mm,	Z =   -1.000 mm,
	W =-180.000 deg,	P =   0.000 deg,	R =    90.000 deg
};
P[5499]{
   GP1:
	UF : 1, UT : 4,		CONFIG : 'N U T, 0, 0, 0',
	X =  34.000  mm,	Y =  103.000  mm,	Z =   15.000 mm,
	W =-180.000 deg,	P =   0.000 deg,	R =    90.000 deg
};
P[5500]{
   GP1:
	UF : 1, UT : 4,		CONFIG : 'N U T, 0, 0, 0',
	X =  37.000  mm,	Y =  103.000  mm,	Z =   15.000 mm,
	W =-180.000 deg,	P =   0.000 deg,	R =    90.000 deg
};
P[5501]{
   GP1:
	UF : 1, UT : 4,		CONFIG : 'N U T, 0, 0, 0',
	X =  37.000  mm,	Y =  103.000  mm,	Z =   -1.000 mm,
	W =-180.000 deg,	P =   0.000 deg,	R =    90.000 deg
};
P[5502]{
   GP1:
	UF : 1, UT : 4,		CONFIG : 'N U T, 0, 0, 0',
	X =  37.000  mm,	Y =  103.000  mm,	Z =   15.000 mm,
	W =-180.000 deg,	P =   0.000 deg,	R =    90.000 deg
};
P[5503]{
   GP1:
	UF : 1, UT : 4,		CONFIG : 'N U T, 0, 0, 0',
	X =  40.000  mm,	Y =  103.000  mm,	Z =   15.000 mm,
	W =-180.000 deg,	P =   0.000 deg,	R =    90.000 deg
};
P[5504]{
   GP1:
	UF : 1, UT : 4,		CONFIG : 'N U T, 0, 0, 0',
	X =  40.000  mm,	Y =  103.000  mm,	Z =   -1.000 mm,
	W =-180.000 deg,	P =   0.000 deg,	R =    90.000 deg
};
P[5505]{
   GP1:
	UF : 1, UT : 4,		CONFIG : 'N U T, 0, 0, 0',
	X =  40.000  mm,	Y =  103.000  mm,	Z =   15.000 mm,
	W =-180.000 deg,	P =   0.000 deg,	R =    90.000 deg
};
P[5506]{
   GP1:
	UF : 1, UT : 4,		CONFIG : 'N U T, 0, 0, 0',
	X =  43.000  mm,	Y =  103.000  mm,	Z =   15.000 mm,
	W =-180.000 deg,	P =   0.000 deg,	R =    90.000 deg
};
P[5507]{
   GP1:
	UF : 1, UT : 4,		CONFIG : 'N U T, 0, 0, 0',
	X =  43.000  mm,	Y =  103.000  mm,	Z =   -1.000 mm,
	W =-180.000 deg,	P =   0.000 deg,	R =    90.000 deg
};
P[5508]{
   GP1:
	UF : 1, UT : 4,		CONFIG : 'N U T, 0, 0, 0',
	X =  43.000  mm,	Y =  103.000  mm,	Z =   15.000 mm,
	W =-180.000 deg,	P =   0.000 deg,	R =    90.000 deg
};
P[5653]{
   GP1:
	UF : 1, UT : 4,		CONFIG : 'N U T, 0, 0, 0',
	X =  19.000  mm,	Y =  106.000  mm,	Z =   15.000 mm,
	W =-180.000 deg,	P =   0.000 deg,	R =    90.000 deg
};
P[5654]{
   GP1:
	UF : 1, UT : 4,		CONFIG : 'N U T, 0, 0, 0',
	X =  19.000  mm,	Y =  106.000  mm,	Z =   -1.000 mm,
	W =-180.000 deg,	P =   0.000 deg,	R =    90.000 deg
};
P[5655]{
   GP1:
	UF : 1, UT : 4,		CONFIG : 'N U T, 0, 0, 0',
	X =  19.000  mm,	Y =  106.000  mm,	Z =   15.000 mm,
	W =-180.000 deg,	P =   0.000 deg,	R =    90.000 deg
};
P[5659]{
   GP1:
	UF : 1, UT : 4,		CONFIG : 'N U T, 0, 0, 0',
	X =  25.000  mm,	Y =  106.000  mm,	Z =   15.000 mm,
	W =-180.000 deg,	P =   0.000 deg,	R =    90.000 deg
};
P[5660]{
   GP1:
	UF : 1, UT : 4,		CONFIG : 'N U T, 0, 0, 0',
	X =  25.000  mm,	Y =  106.000  mm,	Z =   -1.000 mm,
	W =-180.000 deg,	P =   0.000 deg,	R =    90.000 deg
};
P[5661]{
   GP1:
	UF : 1, UT : 4,		CONFIG : 'N U T, 0, 0, 0',
	X =  25.000  mm,	Y =  106.000  mm,	Z =   15.000 mm,
	W =-180.000 deg,	P =   0.000 deg,	R =    90.000 deg
};
P[5797]{
   GP1:
	UF : 1, UT : 4,		CONFIG : 'N U T, 0, 0, 0',
	X =  40.000  mm,	Y =  109.000  mm,	Z =   15.000 mm,
	W =-180.000 deg,	P =   0.000 deg,	R =    90.000 deg
};
P[5798]{
   GP1:
	UF : 1, UT : 4,		CONFIG : 'N U T, 0, 0, 0',
	X =  40.000  mm,	Y =  109.000  mm,	Z =   -1.000 mm,
	W =-180.000 deg,	P =   0.000 deg,	R =    90.000 deg
};
P[5799]{
   GP1:
	UF : 1, UT : 4,		CONFIG : 'N U T, 0, 0, 0',
	X =  40.000  mm,	Y =  109.000  mm,	Z =   15.000 mm,
	W =-180.000 deg,	P =   0.000 deg,	R =    90.000 deg
};
P[5800]{
   GP1:
	UF : 1, UT : 4,		CONFIG : 'N U T, 0, 0, 0',
	X =  43.000  mm,	Y =  109.000  mm,	Z =   15.000 mm,
	W =-180.000 deg,	P =   0.000 deg,	R =    90.000 deg
};
P[5801]{
   GP1:
	UF : 1, UT : 4,		CONFIG : 'N U T, 0, 0, 0',
	X =  43.000  mm,	Y =  109.000  mm,	Z =   -1.000 mm,
	W =-180.000 deg,	P =   0.000 deg,	R =    90.000 deg
};
P[5802]{
   GP1:
	UF : 1, UT : 4,		CONFIG : 'N U T, 0, 0, 0',
	X =  43.000  mm,	Y =  109.000  mm,	Z =   15.000 mm,
	W =-180.000 deg,	P =   0.000 deg,	R =    90.000 deg
};
P[5803]{
   GP1:
	UF : 1, UT : 4,		CONFIG : 'N U T, 0, 0, 0',
	X =  46.000  mm,	Y =  109.000  mm,	Z =   15.000 mm,
	W =-180.000 deg,	P =   0.000 deg,	R =    90.000 deg
};
P[5804]{
   GP1:
	UF : 1, UT : 4,		CONFIG : 'N U T, 0, 0, 0',
	X =  46.000  mm,	Y =  109.000  mm,	Z =   -1.000 mm,
	W =-180.000 deg,	P =   0.000 deg,	R =    90.000 deg
};
P[5805]{
   GP1:
	UF : 1, UT : 4,		CONFIG : 'N U T, 0, 0, 0',
	X =  46.000  mm,	Y =  109.000  mm,	Z =   15.000 mm,
	W =-180.000 deg,	P =   0.000 deg,	R =    90.000 deg
};
P[5887]{
   GP1:
	UF : 1, UT : 4,		CONFIG : 'N U T, 0, 0, 0',
	X =  25.000  mm,	Y =  112.000  mm,	Z =   15.000 mm,
	W =-180.000 deg,	P =   0.000 deg,	R =    90.000 deg
};
P[5888]{
   GP1:
	UF : 1, UT : 4,		CONFIG : 'N U T, 0, 0, 0',
	X =  25.000  mm,	Y =  112.000  mm,	Z =   -1.000 mm,
	W =-180.000 deg,	P =   0.000 deg,	R =    90.000 deg
};
P[5889]{
   GP1:
	UF : 1, UT : 4,		CONFIG : 'N U T, 0, 0, 0',
	X =  25.000  mm,	Y =  112.000  mm,	Z =   15.000 mm,
	W =-180.000 deg,	P =   0.000 deg,	R =    90.000 deg
};
P[5890]{
   GP1:
	UF : 1, UT : 4,		CONFIG : 'N U T, 0, 0, 0',
	X =  28.000  mm,	Y =  112.000  mm,	Z =   15.000 mm,
	W =-180.000 deg,	P =   0.000 deg,	R =    90.000 deg
};
P[5891]{
   GP1:
	UF : 1, UT : 4,		CONFIG : 'N U T, 0, 0, 0',
	X =  28.000  mm,	Y =  112.000  mm,	Z =   -1.000 mm,
	W =-180.000 deg,	P =   0.000 deg,	R =    90.000 deg
};
P[5892]{
   GP1:
	UF : 1, UT : 4,		CONFIG : 'N U T, 0, 0, 0',
	X =  28.000  mm,	Y =  112.000  mm,	Z =   15.000 mm,
	W =-180.000 deg,	P =   0.000 deg,	R =    90.000 deg
};
P[5911]{
   GP1:
	UF : 1, UT : 4,		CONFIG : 'N U T, 0, 0, 0',
	X =  49.000  mm,	Y =  112.000  mm,	Z =   15.000 mm,
	W =-180.000 deg,	P =   0.000 deg,	R =    90.000 deg
};
P[5912]{
   GP1:
	UF : 1, UT : 4,		CONFIG : 'N U T, 0, 0, 0',
	X =  49.000  mm,	Y =  112.000  mm,	Z =   -1.000 mm,
	W =-180.000 deg,	P =   0.000 deg,	R =    90.000 deg
};
P[5913]{
   GP1:
	UF : 1, UT : 4,		CONFIG : 'N U T, 0, 0, 0',
	X =  49.000  mm,	Y =  112.000  mm,	Z =   15.000 mm,
